!!!COM: Haydn, Franz Joseph
!!!OPR: Symphony in B-flat Major
!!!OTL: Affettuoso 
!!!OMV: 1b
!!!SCT: H I:85
!!!SCA: Thematisch-bibliographisches Werkevererzeichnis (A. van Hoboken)
!!!YOR: RISM H 3039, Choron Edition
!!!EED: Frances Bennion
!!!ENC: Frances Bennion
!!!CDT: 1732/3/31/-1809/5/31/
!!!OCY: Österreich
!!!YEC: Copyright (c) 1994, 2000 Center for Computer Assisted Research in the Humanities
!!!YEM: Rights to all derivative editions reserved.
!!!YEM: Refer to licensing agreement for further details.
!!!YEN: United States of America
**kern	**kern	**kern	**kern	**kern	**kern	**kern	**kern	**kern	**kern	**kern	**kern
*k[]	*k[b-e-]	*k[b-e-]	*k[b-e-]	*k[]	*k[b-e-]	*k[b-e-]	*k[b-e-]	*k[b-e-]	*k[b-e-]	*k[b-e-]	*k[b-e-]
*C:	*C:	*C:	*C:	*C:	*C:	*C:	*C:	*C:	*C:	*C:	*C:
*clefF	*clefC3	*clefF4	*clefF4	*clefF	*clefF	*clefF	*clefF	*clefF4	*clefF4	*clefF	*clefF
*M3/4	*M3/4	*M3/4	*M3/4	*M3/4	*M3/4	*M3/4	*M3/4	*M3/4	*M3/4	*M3/4	*M3/4
*tb16	*tb16	*tb16	*tb16	*tb16	*tb16	*tb16	*tb16	*tb16	*tb16	*tb16	*tb16
=0-	=0-	=0-	=0-	=0-	=0-	=0-	=0-	=0-	=0-	=0-	=0-
2.r	2.r	2.r	2.r	2.r	2.r	2.r	2.r	2.r	2.r	2.r	2.r
=1	=1	=1	=1	=1	=1	=1	=1	=1	=1	=1	=1
2.r	2.r	2.r	2.r	2.r	2.r	2.r	2.r	2.r	2.r	2.r	2.r
=2	=2	=2	=2	=2	=2	=2	=2	=2	=2	=2	=2
2.r	2.r	2.r	2.r	2.r	2.r	2.r	2.r	2.r	2.r	2.r	2.r
=3	=3	=3	=3	=3	=3	=3	=3	=3	=3	=3	=3
2.r	2.r	2.r	2.r	2.r	2.r	2.r	2.r	2.r	2.r	2.r	2.r
=4	=4	=4	=4	=4	=4	=4	=4	=4	=4	=4	=4
2.r	2.r	2.r	2.r	2.r	2.r	2.r	2.r	2.r	2.r	2.r	2.r
=5	=5	=5	=5	=5	=5	=5	=5	=5	=5	=5	=5
2.r	2.r	2.r	2.r	2.r	2.r	2.r	2.r	2.r	2.r	2.r	2.r
=6	=6	=6	=6	=6	=6	=6	=6	=6	=6	=6	=6
2.r	2.r	2.r	2.r	2.r	2.r	2.r	2.r	2.r	2.r	2.r	2.r
=7	=7	=7	=7	=7	=7	=7	=7	=7	=7	=7	=7
2.r	2.r	2.r	2.r	2.r	2.r	2.r	2.r	2.r	2.r	2.r	2.r
=8	=8	=8	=8	=8	=8	=8	=8	=8	=8	=8	=8
2.r	2.r	2.r	2.r	2.r	2.r	2.r	2.r	2.r	2.r	2.r	2.r
=9	=9	=9	=9	=9	=9	=9	=9	=9	=9	=9	=9
2.r	2.r	2.r	2.r	2.r	2.r	2.r	2.r	2.r	2.r	2.r	2.r
=10	=10	=10	=10	=10	=10	=10	=10	=10	=10	=10	=10
2.r	2.r	2.r	2.r	2.r	2.r	2.r	2.r	2.r	2.r	2.r	2.r
=11	=11	=11	=11	=11	=11	=11	=11	=11	=11	=11	=11
2.r	2.r	2.r	2.r	2.r	2.r	2.r	2.r	2.r	2.r	2.r	2.r
=12	=12	=12	=12	=12	=12	=12	=12	=12	=12	=12	=12
2.r	8b-	8B-	8B-	2.r	2.r	2.r	2.r	2.r	2.r	[2.b-	[2.b-
.	8r	8r	8r	.	.	.	.	.	.	.	.
.	8a	8A	8A	.	.	.	.	.	.	.	.
.	8r	8r	8r	.	.	.	.	.	.	.	.
.	8g	8G	8G	.	.	.	.	.	.	.	.
.	8r	8r	8r	.	.	.	.	.	.	.	.
=13	=13	=13	=13	=13	=13	=13	=13	=13	=13	=13	=13
2.r	8f	8F	8F	2.r	2.r	2.r	2.r	2.r	2.r	2.b-_	2.b-_
.	8r	8r	8r	.	.	.	.	.	.	.	.
.	8e-	8E-	8E-	.	.	.	.	.	.	.	.
.	8r	8r	8r	.	.	.	.	.	.	.	.
.	8d	8D	8D	.	.	.	.	.	.	.	.
.	8r	8r	8r	.	.	.	.	.	.	.	.
=14	=14	=14	=14	=14	=14	=14	=14	=14	=14	=14	=14
2.r	4c	4C	4C	2.r	2.r	2.r	2.r	2.r	2.r	4b-]	4b-]
.	2r	2r	2r	.	.	.	.	.	.	4a	4a
.	.	.	.	.	.	.	.	.	.	4f	4f
=15	=15	=15	=15	=15	=15	=15	=15	=15	=15	=15	=15
2.r	2.r	2.r	2.r	2.r	2.r	2.r	2.r	2.r	2.r	4e-	4e-
.	.	.	.	.	.	.	.	.	.	2r	2r
=16	=16	=16	=16	=16	=16	=16	=16	=16	=16	=16	=16
2.r	8ee-	8e-	8e-	2.r	2.r	2.r	2.r	2.r	2.r	[2.cc	[2.cc
.	8r	8r	8r	.	.	.	.	.	.	.	.
.	8cc	8c	8c	.	.	.	.	.	.	.	.
.	8r	8r	8r	.	.	.	.	.	.	.	.
.	8a	8A	8A	.	.	.	.	.	.	.	.
.	8r	8r	8r	.	.	.	.	.	.	.	.
=17	=17	=17	=17	=17	=17	=17	=17	=17	=17	=17	=17
2.r	8f	8F	8F	2.r	2.r	2.r	2.r	2.r	2.r	2.cc_	2.cc_
.	8r	8r	8r	.	.	.	.	.	.	.	.
.	8e	8E	8E	.	.	.	.	.	.	.	.
.	8r	8r	8r	.	.	.	.	.	.	.	.
.	8e-	8E-	8E-	.	.	.	.	.	.	.	.
.	8r	8r	8r	.	.	.	.	.	.	.	.
=18	=18	=18	=18	=18	=18	=18	=18	=18	=18	=18	=18
2.r	4d	4D	4D	2.r	2.r	2.r	2.r	2.r	2.r	4cc]	4cc]
.	2r	2r	2r	.	.	.	.	.	.	4dd	4dd
.	.	.	.	.	.	.	.	.	.	4a	4a
=19	=19	=19	=19	=19	=19	=19	=19	=19	=19	=19	=19
2.r	2.r	2.r	2.r	2.r	2.r	2.r	2.r	2.r	2.r	4b-	4b-
.	.	.	.	.	.	.	.	.	.	2r	2r
=20	=20	=20	=20	=20	=20	=20	=20	=20	=20	=20	=20
2.r	8b-	8B-	8B-	2.r	2.r	2.r	2.r	2.r	2.r	2.dd	2.d
.	8r	8r	8r	.	.	.	.	.	.	.	.
.	8a	8A	8A	.	.	.	.	.	.	.	.
.	8r	8r	8r	.	.	.	.	.	.	.	.
.	8a-	8A-	8A-	.	.	.	.	.	.	.	.
.	8r	8r	8r	.	.	.	.	.	.	.	.
=21	=21	=21	=21	=21	=21	=21	=21	=21	=21	=21	=21
2.r	8g	8G	8G	2.r	2.r	2.r	2.r	2.r	2.r	2ee-	2e-
.	8r	8r	8r	.	.	.	.	.	.	.	.
.	8f	8F	8F	.	.	.	.	.	.	.	.
.	8r	8r	8r	.	.	.	.	.	.	.	.
.	8e-	8E-	8E-	.	.	.	.	.	.	16ff#	16f#
.	.	.	.	.	.	.	.	.	.	8.gg	8.g
.	8r	8r	8r	.	.	.	.	.	.	.	.
=22	=22	=22	=22	=22	=22	=22	=22	=22	=22	=22	=22
2.r	2.f	2.F	2.F	2.r	2.r	2.r	2.r	2.r	2.r	2b-	2d
.	.	.	.	.	.	.	.	.	.	8cc	8e-
.	.	.	.	.	.	.	.	.	.	8a	8c
=23	=23	=23	=23	=23	=23	=23	=23	=23	=23	=23	=23
2.cc	4B-	4BB-	4BB-	2.e	2.bb-	2.dd	2.bb-	2.B-	2.B-	4b-	4B-
.	16r	16r	16r	.	.	.	.	.	.	16r	16r
.	16B-	16BB-	16BB-	.	.	.	.	.	.	16b-	16b-
.	16c	16C	16C	.	.	.	.	.	.	16cc	16cc
.	16d	16D	16D	.	.	.	.	.	.	16dd	16dd
.	16e-	16E-	16E-	.	.	.	.	.	.	16ee-	16ee-
.	16f	16F	16F	.	.	.	.	.	.	16ff	16ff
.	16g	16G	16G	.	.	.	.	.	.	16gg	16gg
.	16a	16A	16A	.	.	.	.	.	.	16aa	16aa
=24	=24	=24	=24	=24	=24	=24	=24	=24	=24	=24	=24
4cc	4b-	4B-	4B-	4e	4bb-	4dd	4bb-	4B-	4B-	4bb-	4bb-
4cc	4f	4F	4F	4e	4bb-	4dd	4bb-	4B-	4B-	4ff	4ff
4cc	4d	4D	4D	4e	4bb-	4dd	4bb-	4B-	4B-	4dd	4dd
=25	=25	=25	=25	=25	=25	=25	=25	=25	=25	=25	=25
2.cc	4B-	4BB-	4BB-	2.e	2.bb-	2.dd	2.bb-	2.G	2.G	4b-	4b-
.	16r	16r	16r	.	.	.	.	.	.	16r	16r
.	16G	16GG	16GG	.	.	.	.	.	.	16g	16g
.	16A	16AA	16AA	.	.	.	.	.	.	16a	16a
.	16B-	16BB-	16BB-	.	.	.	.	.	.	16b-	16b-
.	16c	16C	16C	.	.	.	.	.	.	16cc	16cc
.	16d	16D	16D	.	.	.	.	.	.	16dd	16dd
.	16e	16E	16E	.	.	.	.	.	.	16ee	16ee
.	16f#	16F#	16F#	.	.	.	.	.	.	16ff#	16ff#
=26	=26	=26	=26	=26	=26	=26	=26	=26	=26	=26	=26
4cc	4g	4G	4G	4e	4bb-	4dd	4bb-	4G	4G	4gg	4gg
4cc	4d	4D	4D	4e	4bb-	4dd	4bb-	4G	4G	4dd	4dd
4cc	4B-	4BB-	4BB-	4e	4bb-	4dd	4bb-	4G	4G	4b-	4b-
=27	=27	=27	=27	=27	=27	=27	=27	=27	=27	=27	=27
2.cc	4G	4GG	4GG	2.c	2.gg	2.ee-	2.eee-	2.E-	2.E-	4g	4g
.	16r	16r	16r	.	.	.	.	.	.	16r	16r
.	16e-	16E-	16E-	.	.	.	.	.	.	16e-	16e-
.	16f	16F	16F	.	.	.	.	.	.	16f	16f
.	16g	16G	16G	.	.	.	.	.	.	16g	16g
.	16a-	16A-	16A-	.	.	.	.	.	.	16a-	16a-
.	16b-	16B-	16B-	.	.	.	.	.	.	16b-	16b-
.	16cc	16c	16c	.	.	.	.	.	.	16cc	16cc
.	16dd	16d	16d	.	.	.	.	.	.	16dd	16dd
=28	=28	=28	=28	=28	=28	=28	=28	=28	=28	=28	=28
4cc	4ee-	4e-	4e-	4c	4gg	4ee-	4eee-	4E-	4E-	4ee-	4ee-
4dd	4cc	4c	4c	4g	4ccc	4ee-	4ccc	4c	4c	4cc	4cc
4dd	4a	4A	4A	4g	4ccc	4ee-	4aa	4A	4A	4a	4a
=29	=29	=29	=29	=29	=29	=29	=29	=29	=29	=29	=29
2dd	4f	4F	4F	2g	2aa	4ee-	4ff	4F	4F	4f	4f
.	4e-	4E-	4E-	.	.	4cc	4ccc	4E-	4E-	4aa	4aa
4ee	4d	4D	4D	4cc	4bb-	4dd	4bb-	4D	4D	4bb-	4bb-
=30	=30	=30	=30	=30	=30	=30	=30	=30	=30	=30	=30
2.r	4e-	4E-	4E-	2.r	4gg	4gg	4gg	4E-	4E-	4gg	4gg
.	4r	4r	4r	.	4r	4r	4r	4r	4r	4r	4r
.	4f	4F	4F	.	4aa	4ee-	4cc	4F	4F	4a	4a
=31	=31	=31	=31	=31	=31	=31	=31	=31	=31	=31	=31
2.r	4B-	4BB-	4BB-	2.r	4bb-	4dd	4b-	4BB-	4BB-	[2.b-	8b-
.	.	.	.	.	.	.	.	.	.	.	8r
.	2r	2r	2r	.	2r	2r	2r	2r	2r	.	8a
.	.	.	.	.	.	.	.	.	.	.	8r
.	.	.	.	.	.	.	.	.	.	.	8g
.	.	.	.	.	.	.	.	.	.	.	8r
=32	=32	=32	=32	=32	=32	=32	=32	=32	=32	=32	=32
2.r	4d	4D	4D	2.r	2.r	2.r	2.r	2.r	2.r	2.b-_	8f
.	.	.	.	.	.	.	.	.	.	.	8r
.	2r	2r	2r	.	.	.	.	.	.	.	8e-
.	.	.	.	.	.	.	.	.	.	.	8r
.	.	.	.	.	.	.	.	.	.	.	8d
.	.	.	.	.	.	.	.	.	.	.	8r
=33	=33	=33	=33	=33	=33	=33	=33	=33	=33	=33	=33
2.r	4f	4F	4F	2.r	2.r	2.r	2.r	2.r	2.r	4b-]	8c
.	.	.	.	.	.	.	.	.	.	.	2r
.	2r	2r	2r	.	.	.	.	.	.	4a	.
.	.	.	.	.	.	.	.	.	.	4f	.
.	.	.	.	.	.	.	.	.	.	.	8r
=34	=34	=34	=34	=34	=34	=34	=34	=34	=34	=34	=34
4r	2.r	2.r	2.r	4r	4r	4r	2.r	2.r	2.r	4e-	2.r
4g	.	.	.	4G	4ee-	4cc	.	.	.	2r	.
4g	.	.	.	4G	4ee-	4cc	.	.	.	.	.
=35	=35	=35	=35	=35	=35	=35	=35	=35	=35	=35	=35
4g	4f	4F	4F	4G	4ee-	4cc	2.r	2.r	2.r	[2.cc	8ee-
.	.	.	.	.	.	.	.	.	.	.	8r
2r	2r	2r	2r	2r	2r	2r	.	.	.	.	8cc
.	.	.	.	.	.	.	.	.	.	.	8r
.	.	.	.	.	.	.	.	.	.	.	8a
.	.	.	.	.	.	.	.	.	.	.	8r
=36	=36	=36	=36	=36	=36	=36	=36	=36	=36	=36	=36
2.r	4a	4A	4A	2.r	2.r	2.r	2.r	2.r	2.r	2.cc_	8f
.	.	.	.	.	.	.	.	.	.	.	8r
.	2r	2r	2r	.	.	.	.	.	.	.	8e
.	.	.	.	.	.	.	.	.	.	.	8r
.	.	.	.	.	.	.	.	.	.	.	8e-
.	.	.	.	.	.	.	.	.	.	.	8r
=37	=37	=37	=37	=37	=37	=37	=37	=37	=37	=37	=37
2.r	4b-	4B-	4B-	2.r	2.r	2.r	2.r	2.r	2.r	4cc]	4d
.	2r	2r	2r	.	.	.	.	.	.	4dd	2r
.	.	.	.	.	.	.	.	.	.	4a	.
=38	=38	=38	=38	=38	=38	=38	=38	=38	=38	=38	=38
4r	2.r	2.r	2.r	4r	4r	4r	2.r	2.r	2.r	4b-	2.r
4cc	.	.	.	4e	4dd	4f	.	.	.	2r	.
4cc	.	.	.	4e	4dd	4f	.	.	.	.	.
=39	=39	=39	=39	=39	=39	=39	=39	=39	=39	=39	=39
4cc	4B-	4BB-	4BB-	4e	4dd	4f	2.r	2.r	2.r	2.dd	8b-
.	.	.	.	.	.	.	.	.	.	.	8r
2r	2r	2r	2r	2r	2r	2r	.	.	.	.	8a
.	.	.	.	.	.	.	.	.	.	.	8r
.	.	.	.	.	.	.	.	.	.	.	8a-
.	.	.	.	.	.	.	.	.	.	.	8r
=40	=40	=40	=40	=40	=40	=40	=40	=40	=40	=40	=40
2.r	4e-	4E-	4E-	2.r	2.r	2.r	2.r	2.r	2.r	2ee-	8g
.	.	.	.	.	.	.	.	.	.	.	8r
.	2r	2r	2r	.	.	.	.	.	.	.	8f
.	.	.	.	.	.	.	.	.	.	.	8r
.	.	.	.	.	.	.	.	.	.	16ff#	8e-
.	.	.	.	.	.	.	.	.	.	8.gg	.
.	.	.	.	.	.	.	.	.	.	.	8r
=41	=41	=41	=41	=41	=41	=41	=41	=41	=41	=41	=41
2.r	4f	4F	4F	2.r	2.r	2.r	2.r	2.r	2.r	2b-	2d
.	4f	4F	4F	.	.	.	.	.	.	.	.
.	4f	4F	4F	.	.	.	.	.	.	8cc	8e-
.	.	.	.	.	.	.	.	.	.	8a	8c
=42	=42	=42	=42	=42	=42	=42	=42	=42	=42	=42	=42
2.cc	8B-	8BB-	8BB-	2.e	[2.ff	[2.dd	[2.bb-	8BB-	8BB-	4b-	8dd 8f
.	8b-	8B-	8B-	.	.	.	.	8B-	8B-	.	4f 4dd
.	8B-	8BB-	8BB-	.	.	.	.	8BB-	8BB-	16r	.
.	.	.	.	.	.	.	.	.	.	16b-	.
.	8b-	8B-	8B-	.	.	.	.	8B-	8B-	16cc	4dd 4f
.	.	.	.	.	.	.	.	.	.	16dd	.
.	8B-	8BB-	8BB-	.	.	.	.	8BB-	8BB-	16ee-	.
.	.	.	.	.	.	.	.	.	.	16ff	.
.	8b-	8B-	8B-	.	.	.	.	8B-	8B-	16gg	[8dd 8f
.	.	.	.	.	.	.	.	.	.	16aa	.
=43	=43	=43	=43	=43	=43	=43	=43	=43	=43	=43	=43
4cc	8B-	8BB-	8BB-	4c	2.ff_	2.dd_	4bb-]	8BB-	8BB-	4bb-	8dd 8f]
.	8b-	8B-	8B-	.	.	.	.	8B-	8B-	.	4dd 4f
4g	8B-	8BB-	8BB-	4G	.	.	4ff	8BB-	8BB-	4ff	.
.	8b-	8B-	8B-	.	.	.	.	8B-	8B-	.	4dd 4f
4ee	8B-	8BB-	8BB-	4e	.	.	4ddd	8BB-	8BB-	4ddd	.
.	8b-	8B-	8B-	.	.	.	.	8B-	8B-	.	[8dd 8f
=44	=44	=44	=44	=44	=44	=44	=44	=44	=44	=44	=44
2.cc	8B-	8BB-	8BB-	2.c	2.ff_	2.dd_	4bb-	8BB-	8BB-	4bb-	8dd 8f]
.	8b-	8B-	8B-	.	.	.	.	8B-	8B-	.	4dd 4f
.	8B-	8BB-	8BB-	.	.	.	4r	8BB-	8BB-	4r	.
.	8b-	8B-	8B-	.	.	.	.	8B-	8B-	.	4dd 4f
.	8B-	8BB-	8BB-	.	.	.	16bb-	8BB-	8BB-	16bb-	.
.	.	.	.	.	.	.	16aa	.	.	16aa	.
.	8b-	8B-	8B-	.	.	.	16bb-	8B-	8B-	16bb-	[8dd 8f
.	.	.	.	.	.	.	16ccc	.	.	16ccc	.
=45	=45	=45	=45	=45	=45	=45	=45	=45	=45	=45	=45
4ee	8B-	8BB-	8BB-	4e	2.ff]	2.dd]	4ddd	8BB-	8BB-	4ddd	8dd 8f]
.	8b-	8B-	8B-	.	.	.	.	8B-	8B-	.	4dd 4f
4cc	8B-	8BB-	8BB-	4c	.	.	4bb-	8BB-	8BB-	4bb-	.
.	8b-	8B-	8B-	.	.	.	.	8B-	8B-	.	4dd 4f
4gg	8B-	8BB-	8BB-	4g	.	.	4fff	8BB-	8BB-	4fff	.
.	8b-	8B-	8B-	.	.	.	.	8B-	8B-	.	[8f 8dd
=46	=46	=46	=46	=46	=46	=46	=46	=46	=46	=46	=46
2ee	8B-	8BB-	8BB-	2e	2.ff	2.dd	4ddd	8BB-	8BB-	4ddd	8f 8dd]
.	8b-	8B-	8B-	.	.	.	.	8B-	8B-	.	4dd 4f
.	8B-	8BB-	8BB-	.	.	.	4bb-	8BB-	8BB-	4bb-	.
.	8b-	8B-	8B-	.	.	.	.	8B-	8B-	.	4dd 4f
4cc	8B-	8BB-	8BB-	4c	.	.	4gg	8BB-	8BB-	4gg	.
.	8b-	8B-	8B-	.	.	.	.	8B-	8B-	.	8f 8dd
=47	=47	=47	=47	=47	=47	=47	=47	=47	=47	=47	=47
2.cc	8B-	8BB-	8BB-	2.c	2.ee	2.cc	4ee	8BB-	8BB-	16ee	16cc 16g
.	.	.	.	.	.	.	.	.	.	16ee	16cc 16g
.	8b-	8B-	8B-	.	.	.	.	8B-	8B-	16ee	16cc 16g
.	.	.	.	.	.	.	.	.	.	16ee	16g 16cc
.	8B-	8BB-	8BB-	.	.	.	2gg	8BB-	8BB-	16ee	16g 16cc
.	.	.	.	.	.	.	.	.	.	16ee	16cc 16g
.	8b-	8B-	8B-	.	.	.	.	8B-	8B-	16ee	16cc 16g
.	.	.	.	.	.	.	.	.	.	16ee	16cc 16g
.	8B-	8BB-	8BB-	.	.	.	.	8BB-	8BB-	16ee	16cc 16g
.	.	.	.	.	.	.	.	.	.	16ee	16g 16cc
.	8b-	8B-	8B-	.	.	.	.	8B-	8B-	16ee	16g 16cc
.	.	.	.	.	.	.	.	.	.	16ee	16g 16cc
=48	=48	=48	=48	=48	=48	=48	=48	=48	=48	=48	=48
2.dd	8A	8AA	8AA	2.g	2.ff	2.cc	2.ff	8AA	8AA	16ff	16cc 16f
.	.	.	.	.	.	.	.	.	.	16ff	16cc 16f
.	8a	8A	8A	.	.	.	.	8A	8A	16ff	16cc 16f
.	.	.	.	.	.	.	.	.	.	16ff	16cc 16f
.	8A	8AA	8AA	.	.	.	.	8AA	8AA	16ff	16cc 16f
.	.	.	.	.	.	.	.	.	.	16ff	16cc 16f
.	8a	8A	8A	.	.	.	.	8A	8A	16ff	16cc 16f
.	.	.	.	.	.	.	.	.	.	16ff	16cc 16f
.	8A	8AA	8AA	.	.	.	.	8AA	8AA	16ff	16cc 16f
.	.	.	.	.	.	.	.	.	.	16ff	16cc 16f
.	8a	8A	8A	.	.	.	.	8A	8A	16ff	16cc 16f
.	.	.	.	.	.	.	.	.	.	16ff	16f 16cc
=49	=49	=49	=49	=49	=49	=49	=49	=49	=49	=49	=49
2.dd	8E	8EE	8EE	2.dd	2.gg	2.cc	2.bb-	8EE	8EE	16bb-	16cc 16g
.	.	.	.	.	.	.	.	.	.	16bb-	16g 16cc
.	8e	8E	8E	.	.	.	.	8E	8E	16bb-	16g 16cc
.	.	.	.	.	.	.	.	.	.	16bb-	16g 16cc
.	8E	8EE	8EE	.	.	.	.	8EE	8EE	16bb-	16g 16cc
.	.	.	.	.	.	.	.	.	.	16bb-	16g 16cc
.	8e	8E	8E	.	.	.	.	8E	8E	16bb-	16g 16cc
.	.	.	.	.	.	.	.	.	.	16bb-	16g 16cc
.	8E	8EE	8EE	.	.	.	.	8EE	8EE	16bb-	16g 16cc
.	.	.	.	.	.	.	.	.	.	16bb-	16g 16cc
.	8e	8E	8E	.	.	.	.	8E	8E	16bb-	16g 16cc
.	.	.	.	.	.	.	.	.	.	16bb-	16g 16cc
=50	=50	=50	=50	=50	=50	=50	=50	=50	=50	=50	=50
2.dd	8F	8FF	8FF	2.dd	2.aa	2.cc	2.aa	8FF	8FF	16aa	16a 16cc
.	.	.	.	.	.	.	.	.	.	16aa	16cc 16a
.	8f	8F	8F	.	.	.	.	8F	8F	16aa	16cc 16a
.	.	.	.	.	.	.	.	.	.	16aa	16a 16cc
.	8F	8FF	8FF	.	.	.	.	8FF	8FF	16aa	16a 16cc
.	.	.	.	.	.	.	.	.	.	16aa	16a 16cc
.	8f	8F	8F	.	.	.	.	8F	8F	16aa	16a 16cc
.	.	.	.	.	.	.	.	.	.	16aa	16cc 16a
.	8F	8FF	8FF	.	.	.	.	8FF	8FF	16aa	16a 16cc
.	.	.	.	.	.	.	.	.	.	16aa	16a 16cc
.	8f	8F	8F	.	.	.	.	8F	8F	16aa	16a 16cc
.	.	.	.	.	.	.	.	.	.	16aa	16a 16cc
=51	=51	=51	=51	=51	=51	=51	=51	=51	=51	=51	=51
2.g	8d	8D	8D	2.g	2.bb	2.ff	2.gg	8D	8D	16bb	16ff
.	.	.	.	.	.	.	.	.	.	16bb	16ff
.	8dd	8d	8d	.	.	.	.	8d	8d	16bb	16ff
.	.	.	.	.	.	.	.	.	.	16bb	16ff
.	8d	8D	8D	.	.	.	.	8D	8D	16bb	16ff
.	.	.	.	.	.	.	.	.	.	16bb	16ff
.	8dd	8d	8d	.	.	.	.	8d	8d	16bb	16ff
.	.	.	.	.	.	.	.	.	.	16bb	16ff
.	8d	8D	8D	.	.	.	.	8D	8D	16bb	16ff
.	.	.	.	.	.	.	.	.	.	16bb	16ff
.	8dd	8d	8d	.	.	.	.	8d	8d	16bb	16ff
.	.	.	.	.	.	.	.	.	.	16bb	16ff
=52	=52	=52	=52	=52	=52	=52	=52	=52	=52	=52	=52
4dd	4c	4C	4C	4dd	4ccc	4ee	[2.ccc	4C	4C	16ccc	16ee
.	.	.	.	.	.	.	.	.	.	16ccc	16ee
.	.	.	.	.	.	.	.	.	.	16ccc	16ee
.	.	.	.	.	.	.	.	.	.	16ccc	16ee
2r	8r	8r	8r	2r	2r	2r	.	8r	8r	16ccc	16ee
.	.	.	.	.	.	.	.	.	.	16ccc	16ee
.	16c	16C	16C	.	.	.	.	16C	16C	16ccc	16ee
.	16d	16D	16D	.	.	.	.	16D	16D	16ccc	16ee
.	16e	16E	16E	.	.	.	.	16E	16E	16ccc	16ee
.	16f	16F	16F	.	.	.	.	16F	16F	16ccc	16ee
.	16g	16G	16G	.	.	.	.	16G	16G	16ccc	16ee
.	16a	16A	16A	.	.	.	.	16A	16A	16ccc	16ee
=53	=53	=53	=53	=53	=53	=53	=53	=53	=53	=53	=53
2.r	4b-	4B-	4B-	2.r	2gg	2ee	2.ccc_	4B-	4B-	16ccc	16ee
.	.	.	.	.	.	.	.	.	.	16ccc	16ee
.	.	.	.	.	.	.	.	.	.	16ccc	16ee
.	.	.	.	.	.	.	.	.	.	16ccc	16ee
.	4g	4G	4G	.	.	.	.	4G	4G	16ccc	16ee
.	.	.	.	.	.	.	.	.	.	16ccc	16ee
.	.	.	.	.	.	.	.	.	.	16ccc	16ee
.	.	.	.	.	.	.	.	.	.	16ccc	16ee
.	4e	4E	4E	.	4bb-	4gg	.	4E	4E	16ccc	16gg
.	.	.	.	.	.	.	.	.	.	16ccc	16gg
.	.	.	.	.	.	.	.	.	.	16ccc	16gg
.	.	.	.	.	.	.	.	.	.	16ccc	16gg
=54	=54	=54	=54	=54	=54	=54	=54	=54	=54	=54	=54
2.r	4f	4F	4F	2.r	4aa	4ff	2.ccc]	4F	4F	16ccc	16aa
.	.	.	.	.	.	.	.	.	.	16ccc	16aa
.	.	.	.	.	.	.	.	.	.	16ccc	16aa
.	.	.	.	.	.	.	.	.	.	16ccc	16aa
.	16r	16r	16r	.	2r	2r	.	16r	16r	16ccc	16aa
.	16f	16F	16F	.	.	.	.	16F	16F	16ccc	16aa
.	16g	16G	16G	.	.	.	.	16G	16G	16ccc	16aa
.	16a	16A	16A	.	.	.	.	16A	16A	16ccc	16aa
.	16b-	16B-	16B-	.	.	.	.	16B-	16B-	16ccc	16aa
.	16cc	16c	16c	.	.	.	.	16c	16c	16ccc	16aa
.	16dd	16d	16d	.	.	.	.	16d	16d	16ccc	16aa
.	16ee	16e	16e	.	.	.	.	16e	16e	16ccc	16aa
=55	=55	=55	=55	=55	=55	=55	=55	=55	=55	=55	=55
2.r	4ff	4f	4f	2.r	2dd	2.dd	2.bb	4f	4f	16bb	16ff
.	.	.	.	.	.	.	.	.	.	16bb	16ff
.	.	.	.	.	.	.	.	.	.	16bb	16ff
.	.	.	.	.	.	.	.	.	.	16bb	16ff
.	4dd	4d	4d	.	.	.	.	4d	4d	16bb	16ff
.	.	.	.	.	.	.	.	.	.	16bb	16ff
.	.	.	.	.	.	.	.	.	.	16bb	16ff
.	.	.	.	.	.	.	.	.	.	16bb	16ff
.	4b	4B	4B	.	4bb	.	.	4B	4B	16bb	16ff
.	.	.	.	.	.	.	.	.	.	16bb	16ff
.	.	.	.	.	.	.	.	.	.	16bb	16ff
.	.	.	.	.	.	.	.	.	.	16bb	16ff
=56	=56	=56	=56	=56	=56	=56	=56	=56	=56	=56	=56
[2.dd	8c	8C	8C	[2.dd	4ccc	4ee	4ccc	8C	8C	4ccc	16ee 16cc
.	.	.	.	.	.	.	.	.	.	.	16ee 16cc
.	8cc	8c	8c	.	.	.	.	8c	8c	.	16ee 16cc
.	.	.	.	.	.	.	.	.	.	.	16ee 16cc
.	8c	8C	8C	.	2r	2r	2r	8C	8C	8r	16ee 16cc
.	.	.	.	.	.	.	.	.	.	.	16ee 16cc
.	8cc	8c	8c	.	.	.	.	8c	8c	16cc	16ee 16cc
.	.	.	.	.	.	.	.	.	.	16dd	16ee 16cc
.	8c	8C	8C	.	.	.	.	8C	8C	16ee	16ee 16cc
.	.	.	.	.	.	.	.	.	.	16ff	16ee 16cc
.	8cc	8c	8c	.	.	.	.	8c	8c	16gg	16ee 16cc
.	.	.	.	.	.	.	.	.	.	16aa	16ee 16cc
=57	=57	=57	=57	=57	=57	=57	=57	=57	=57	=57	=57
2.dd_	8c	8C	8C	2.dd_	2.gg	2.ee	2.bb-	8C	8C	4bb-	16b- 16ee
.	.	.	.	.	.	.	.	.	.	.	16ee 16b-
.	8cc	8c	8c	.	.	.	.	8c	8c	.	16ee 16b-
.	.	.	.	.	.	.	.	.	.	.	16b- 16ee
.	8c	8C	8C	.	.	.	.	8C	8C	4gg	16b- 16ee
.	.	.	.	.	.	.	.	.	.	.	16ee 16b-
.	8cc	8c	8c	.	.	.	.	8c	8c	.	16ee 16b-
.	.	.	.	.	.	.	.	.	.	.	16ee 16b-
.	8c	8C	8C	.	.	.	.	8C	8C	4ee	16b- 16ee
.	.	.	.	.	.	.	.	.	.	.	16b- 16ee
.	8cc	8c	8c	.	.	.	.	8c	8c	.	16ee 16b-
.	.	.	.	.	.	.	.	.	.	.	16b- 16ee
=58	=58	=58	=58	=58	=58	=58	=58	=58	=58	=58	=58
2.dd_	8c	8C	8C	2.dd_	4aa	4ff	4aa	8C	8C	4ff	16ff 16a
.	.	.	.	.	.	.	.	.	.	.	16a 16ff
.	8cc	8c	8c	.	.	.	.	8c	8c	.	16ff 16a
.	.	.	.	.	.	.	.	.	.	.	16ff 16a
.	8c	8C	8C	.	2r	2r	2r	8C	8C	16r	16ff 16a
.	.	.	.	.	.	.	.	.	.	16ff	16a 16ff
.	8cc	8c	8c	.	.	.	.	8c	8c	16gg	16ff 16a
.	.	.	.	.	.	.	.	.	.	16aa	16ff 16a
.	8c	8C	8C	.	.	.	.	8C	8C	16bb-	16a 16ff
.	.	.	.	.	.	.	.	.	.	16ccc	16a 16ff
.	8cc	8c	8c	.	.	.	.	8c	8c	16ddd	16ff 16a
.	.	.	.	.	.	.	.	.	.	16eee	16a 16ff
=59	=59	=59	=59	=59	=59	=59	=59	=59	=59	=59	=59
2.dd]	8c	8C	8C	2.dd]	2.ff	2.dd	2.bb	8C	8C	4fff	16ff 16b
.	.	.	.	.	.	.	.	.	.	.	16ff 16b
.	8cc	8c	8c	.	.	.	.	8c	8c	.	16ff 16b
.	.	.	.	.	.	.	.	.	.	.	16ff 16b
.	8c	8C	8C	.	.	.	.	8C	8C	4ddd	16ff 16b
.	.	.	.	.	.	.	.	.	.	.	16ff 16b
.	8cc	8c	8c	.	.	.	.	8c	8c	.	16ff 16b
.	.	.	.	.	.	.	.	.	.	.	16ff 16b
.	8c	8C	8C	.	.	.	.	8C	8C	4bb	16ff 16b
.	.	.	.	.	.	.	.	.	.	.	16ff 16b
.	8cc	8c	8c	.	.	.	.	8c	8c	.	16ff 16b
.	.	.	.	.	.	.	.	.	.	.	16ff 16b
=60	=60	=60	=60	=60	=60	=60	=60	=60	=60	=60	=60
4dd	4c	4C	4C	4dd	4ee	4cc	4ccc	4C	4C	4ccc	4ee 4cc
4dd	4c	4C	4C	4dd	4ee	4g	4ccc	4C	4C	4ccc	4ee 4cc
4dd	4c	4C	4C	4dd	4ee	4e	4ccc	4C	4C	4ccc	4ee 4cc
=61	=61	=61	=61	=61	=61	=61	=61	=61	=61	=61	=61
4dd	4c	4C	4C	4dd	4ee	4c	4ccc	4C	4C	4ccc	4ee 4cc
2r	2r	2r	2r	2r	2r	2r	2r	2r	2r	2r	2r
=62	=62	=62	=62	=62	=62	=62	=62	=62	=62	=62	=62
2g	[2.c	8F	8F	2g	[2.aa-	[2.cc	4ff	[2.c	[2.A-	4ff	[2.A- 2.f
.	.	8F	8F	.	.	.	.	.	.	.	.
.	.	8F	8F	.	.	.	4ccc	.	.	4cc	.
.	.	8F	8F	.	.	.	.	.	.	.	.
4r	.	8F	8F	4r	.	.	4aa-	.	.	4a-	.
.	.	8F	8F	.	.	.	.	.	.	.	.
=63	=63	=63	=63	=63	=63	=63	=63	=63	=63	=63	=63
2.r	4c]	8F	8F	2.r	2.aa-]	2.cc]	4ff	2.c]	2.A-]	4f	4A- 4f]
.	.	8F	8F	.	.	.	.	.	.	.	.
.	4c	8F	8F	.	.	.	4cc	.	.	4c	4f 4A-
.	.	8F	8F	.	.	.	.	.	.	.	.
.	4c	8F	8F	.	.	.	4a-	.	.	4A-	4A- 4f
.	.	8F	8F	.	.	.	.	.	.	.	.
=64	=64	=64	=64	=64	=64	=64	=64	=64	=64	=64	=64
2.r	[2.d-	8F	8F	2.r	[2.bb-	[2.dd-	4g	[2.d-	[2.B-	4G	[2.G 2.e
.	.	8F	8F	.	.	.	.	.	.	.	.
.	.	8F	8F	.	.	.	4b-	.	.	4B-	.
.	.	8F	8F	.	.	.	.	.	.	.	.
.	.	8F	8F	.	.	.	4dd-	.	.	4d-	.
.	.	8F	8F	.	.	.	.	.	.	.	.
=65	=65	=65	=65	=65	=65	=65	=65	=65	=65	=65	=65
2.r	4d-]	8F	8F	2.r	2.bb-]	2.dd-]	4ee	2.d-]	2.B-]	4e	4G 4e]
.	.	8F	8F	.	.	.	.	.	.	.	.
.	4d-	8F	8F	.	.	.	4gg	.	.	4g	4e 4G
.	.	8F	8F	.	.	.	.	.	.	.	.
.	4d-	8F	8F	.	.	.	4bb-	.	.	4b-	4G 4e
.	.	8F	8F	.	.	.	.	.	.	.	.
=66	=66	=66	=66	=66	=66	=66	=66	=66	=66	=66	=66
2dd	2.c	8E	8E	2dd	[2.bb-	2.cc	4bb-	2.c	2.c	4bb-	[2.B- 2.g
.	.	8E	8E	.	.	.	.	.	.	.	.
.	.	8E	8E	.	.	.	4gg	.	.	4gg	.
.	.	8E	8E	.	.	.	.	.	.	.	.
4r	.	8E	8E	4r	.	.	4ee	.	.	4ee	.
.	.	8E	8E	.	.	.	.	.	.	.	.
=67	=67	=67	=67	=67	=67	=67	=67	=67	=67	=67	=67
2.r	2d-	8E	8E	2.r	2.bb-]	2dd-	4dd-	2d-	2d-	4dd-	4B- 4g]
.	.	8E	8E	.	.	.	.	.	.	.	.
.	.	8E	8E	.	.	.	4b-	.	.	4b-	4B- 4g
.	.	8E	8E	.	.	.	.	.	.	.	.
.	4c	8E	8E	.	.	4cc	4g	4c	4c	4g	4g 4B-
.	.	8E	8E	.	.	.	.	.	.	.	.
=68	=68	=68	=68	=68	=68	=68	=68	=68	=68	=68	=68
2.r	2.c	8F	8F	2.r	2.aa-	2.cc	4f	[2.A-	[2.A-	4f	2.A- 2.f
.	.	8F	8F	.	.	.	.	.	.	.	.
.	.	8F	8F	.	.	.	4aa-	.	.	4aa-	.
.	.	8F	8F	.	.	.	.	.	.	.	.
.	.	8F	8F	.	.	.	4aa-	.	.	4aa-	.
.	.	8F	8F	.	.	.	.	.	.	.	.
=69	=69	=69	=69	=69	=69	=69	=69	=69	=69	=69	=69
2.r	4B	8D-	8D-	2.r	2.bb	2.ff	4ff	2A-]	2A-]	4f	4a-
.	.	8D-	8D-	.	.	.	.	.	.	.	.
.	4f	8D-	8D-	.	.	.	4bb	.	.	4bb	4f
.	.	8D-	8D-	.	.	.	.	.	.	.	.
.	4f	8D-	8D-	.	.	.	4bb	4F	4F	4bb	4f
.	.	8D-	8D-	.	.	.	.	.	.	.	.
=70	=70	=70	=70	=70	=70	=70	=70	=70	=70	=70	=70
4dd	8c	8C	8C	4dd	4ccc	4cc	4ccc	4C	4C	4ccc	4e
.	8cc	8c	8c	.	.	.	.	.	.	.	.
4dd	8c	8C	8C	4dd	4ccc	4cc	4ccc	4C	4C	16r	4r
.	.	.	.	.	.	.	.	.	.	16cc	.
.	8cc	8c	8c	.	.	.	.	.	.	16dd	.
.	.	.	.	.	.	.	.	.	.	16ee	.
4r	8c	8C	8C	4r	4r	4r	4r	4r	4r	16ff	16ff
.	.	.	.	.	.	.	.	.	.	16gg	16ee
.	8cc	8c	8c	.	.	.	.	.	.	16aa-	16ff
.	.	.	.	.	.	.	.	.	.	16bb-	16gg
=71	=71	=71	=71	=71	=71	=71	=71	=71	=71	=71	=71
2.r	8c	8C	8C	2.r	2.r	2.r	2.r	2.r	2.r	4ccc	4aa-
.	8cc	8c	8c	.	.	.	.	.	.	.	.
.	8c	8C	8C	.	.	.	.	.	.	4bb-	4gg
.	8cc	8c	8c	.	.	.	.	.	.	.	.
.	8c	8C	8C	.	.	.	.	.	.	4aa-	4ff
.	8cc	8c	8c	.	.	.	.	.	.	.	.
=72	=72	=72	=72	=72	=72	=72	=72	=72	=72	=72	=72
4dd	8c	8C	8C	4dd	4ccc	4cc	4ccc	4C	4C	4gg	4ee
.	8cc	8c	8c	.	.	.	.	.	.	.	.
4dd	8c	8C	8C	4dd	4ccc	4cc	4ccc	4C	4C	16r	4r
.	.	.	.	.	.	.	.	.	.	16cc	.
.	8cc	8c	8c	.	.	.	.	.	.	16dd	.
.	.	.	.	.	.	.	.	.	.	16ee	.
4r	8c	8C	8C	4r	4r	4r	4r	4r	4r	16ff	16ff
.	.	.	.	.	.	.	.	.	.	16gg	16ee
.	8cc	8c	8c	.	.	.	.	.	.	16aa-	16ff
.	.	.	.	.	.	.	.	.	.	16bb-	16gg
=73	=73	=73	=73	=73	=73	=73	=73	=73	=73	=73	=73
2.r	8c	8C	8C	2.r	2.r	2.r	2.r	2.r	2.r	4ccc	4aa-
.	8cc	8c	8c	.	.	.	.	.	.	.	.
.	8c	8C	8C	.	.	.	.	.	.	4bb-	4gg
.	8cc	8c	8c	.	.	.	.	.	.	.	.
.	8c	8C	8C	.	.	.	.	.	.	4aa-	4ff
.	8cc	8c	8c	.	.	.	.	.	.	.	.
=74	=74	=74	=74	=74	=74	=74	=74	=74	=74	=74	=74
4dd	8c	8C	8C	4dd	4ccc	4cc	4ccc	4C	4C	4gg	4ee
.	8cc	8c	8c	.	.	.	.	.	.	.	.
4dd	8c	8C	8C	4dd	4ccc	4cc	4ccc	4C	4C	16r	4r
.	.	.	.	.	.	.	.	.	.	16cc	.
.	8cc	8c	8c	.	.	.	.	.	.	16dd	.
.	.	.	.	.	.	.	.	.	.	16ee	.
4r	8c	8C	8C	4r	4r	4r	4r	4r	4r	16ff	16ff
.	.	.	.	.	.	.	.	.	.	16gg	16ee
.	8cc	8c	8c	.	.	.	.	.	.	16aa-	16ff
.	.	.	.	.	.	.	.	.	.	16bb-	16gg
=75	=75	=75	=75	=75	=75	=75	=75	=75	=75	=75	=75
2.r	8c	8C	8C	2.r	2.r	2.r	2.r	2.r	2.r	8ccc	8aa-
.	8cc	8c	8c	.	.	.	.	.	.	8r	8r
.	8c	8C	8C	.	.	.	.	.	.	8bb-	8gg
.	8cc	8c	8c	.	.	.	.	.	.	8r	8r
.	8c	8C	8C	.	.	.	.	.	.	8aa-	8ff
.	8cc	8c	8c	.	.	.	.	.	.	8r	8r
=76	=76	=76	=76	=76	=76	=76	=76	=76	=76	=76	=76
2.r	4c	4C	4C	2.r	2.r	2.r	2.r	4C	4C	8gg	8ee
.	.	.	.	.	.	.	.	.	.	8r	8r
.	2r	2r	2r	.	.	.	.	2r	2r	8ff	8dd
.	.	.	.	.	.	.	.	.	.	8r	8r
.	.	.	.	.	.	.	.	.	.	8ee	8cc
.	.	.	.	.	.	.	.	.	.	8r	8r
=77	=77	=77	=77	=77	=77	=77	=77	=77	=77	=77	=77
2.r	2.r	2.r	2.r	2.r	2.r	2.r	2.r	2.r	2.r	8dd	8b-
.	.	.	.	.	.	.	.	.	.	8r	8r
.	.	.	.	.	.	.	.	.	.	8cc	8a
.	.	.	.	.	.	.	.	.	.	8r	8r
.	.	.	.	.	.	.	.	.	.	8b-	8g
.	.	.	.	.	.	.	.	.	.	8r	8r
=78	=78	=78	=78	=78	=78	=78	=78	=78	=78	=78	=78
2.r	4f	4F	4F	2.r	[2.ff	2.r	2.r	2.r	2.r	8a	8f
.	.	.	.	.	.	.	.	.	.	8r	8r
.	2r	2r	2r	.	.	.	.	.	.	8g	8e
.	.	.	.	.	.	.	.	.	.	8r	8r
.	.	.	.	.	.	.	.	.	.	8f	8d
.	.	.	.	.	.	.	.	.	.	8r	8r
=79	=79	=79	=79	=79	=79	=79	=79	=79	=79	=79	=79
2.r	2.r	2.r	2.r	2.r	2.ff_	2.r	2.r	2.r	2.r	8e	8c
.	.	.	.	.	.	.	.	.	.	8r	8r
.	.	.	.	.	.	.	.	.	.	8d	8B-
.	.	.	.	.	.	.	.	.	.	8r	8r
.	.	.	.	.	.	.	.	.	.	8c	8A
.	.	.	.	.	.	.	.	.	.	8r	8r
=80	=80	=80	=80	=80	=80	=80	=80	=80	=80	=80	=80
2.r	4c	4C	4C	2.r	4ff]	2.r	2.r	2.r	2.r	4B-	4G
.	2r	2r	2r	.	4ee	.	.	.	.	2r	2r
.	.	.	.	.	4cc	.	.	.	.	.	.
=81	=81	=81	=81	=81	=81	=81	=81	=81	=81	=81	=81
2.r	2.r	2.r	2.r	2.r	4b-	2.r	2.r	2.r	2.r	4r	4r
.	.	.	.	.	2r	.	.	.	.	8b-	8g
.	.	.	.	.	.	.	.	.	.	8r	8r
.	.	.	.	.	.	.	.	.	.	8b-	8g
.	.	.	.	.	.	.	.	.	.	8r	8r
=82	=82	=82	=82	=82	=82	=82	=82	=82	=82	=82	=82
2.r	4c	4C	4C	2.r	[2.gg	2.r	2.r	2.r	2.r	8b-	8g
.	.	.	.	.	.	.	.	.	.	8r	8r
.	2r	2r	2r	.	.	.	.	.	.	8a	8f
.	.	.	.	.	.	.	.	.	.	8r	8r
.	.	.	.	.	.	.	.	.	.	8g	8e
.	.	.	.	.	.	.	.	.	.	8r	8r
=83	=83	=83	=83	=83	=83	=83	=83	=83	=83	=83	=83
2.r	2.r	2.r	2.r	2.r	2.gg_	2.r	2.r	2.r	2.r	8f	8d
.	.	.	.	.	.	.	.	.	.	8r	8r
.	.	.	.	.	.	.	.	.	.	8e	8c
.	.	.	.	.	.	.	.	.	.	8r	8r
.	.	.	.	.	.	.	.	.	.	8d	8B-
.	.	.	.	.	.	.	.	.	.	8r	8r
=84	=84	=84	=84	=84	=84	=84	=84	=84	=84	=84	=84
2.r	4f	4F	4F	2.r	4gg]	2.r	2.r	2.r	2.r	4c	4A
.	2r	2r	2r	.	4aa	.	.	.	.	2r	2r
.	.	.	.	.	4ee	.	.	.	.	.	.
=85	=85	=85	=85	=85	=85	=85	=85	=85	=85	=85	=85
2.r	2.r	2.r	2.r	2.r	4ff	2.r	2.r	2.r	2.r	4r	4r
.	.	.	.	.	2r	.	.	.	.	4cc	4a
.	.	.	.	.	.	.	.	.	.	4cc	4a
=86	=86	=86	=86	=86	=86	=86	=86	=86	=86	=86	=86
2.r	2.r	2.r	2.r	2.r	[2.ccc	2.r	2.r	2.r	2.r	4aa	4f
.	.	.	.	.	.	.	.	.	.	4gg#	4e
.	.	.	.	.	.	.	.	.	.	4gg	4e-
=87	=87	=87	=87	=87	=87	=87	=87	=87	=87	=87	=87
2.r	2.r	2.r	2.r	2.r	4ccc]	2.r	2.r	2.r	2.r	[2.ff	2.d
.	.	.	.	.	4ddd	.	.	.	.	.	.
.	.	.	.	.	4ccc	.	.	.	.	.	.
=88	=88	=88	=88	=88	=88	=88	=88	=88	=88	=88	=88
2.r	2.r	2.r	2.r	2.r	2.bb	2.r	2.r	2.r	2.r	4ff]	2.g
.	.	.	.	.	.	.	.	.	.	4gg	.
.	.	.	.	.	.	.	.	.	.	4ff	.
=89	=89	=89	=89	=89	=89	=89	=89	=89	=89	=89	=89
2.r	2.r	2.r	2.r	2.r	4bb-	2.r	2.r	2.r	2.r	2.ee	2.c
.	.	.	.	.	4ccc	.	.	.	.	.	.
.	.	.	.	.	4bb-	.	.	.	.	.	.
=90	=90	=90	=90	=90	=90	=90	=90	=90	=90	=90	=90
2.r	2.r	2.r	2.r	2.r	[2.aa	2.r	2.r	2.r	2.r	[2.ff	4f
.	.	.	.	.	.	.	.	.	.	.	4e
.	.	.	.	.	.	.	.	.	.	.	4d
=91	=91	=91	=91	=91	=91	=91	=91	=91	=91	=91	=91
2.r	2.r	2.r	2.r	2.r	2aa]	2.r	2.r	2.r	2.r	2ff]	4c#
.	.	.	.	.	.	.	.	.	.	.	4d
.	.	.	.	.	8bb-	.	.	.	.	8dd	4B-
.	.	.	.	.	8gg	.	.	.	.	8b-	.
=92	=92	=92	=92	=92	=92	=92	=92	=92	=92	=92	=92
2.dd	2.r	2.r	2.r	2.dd	2ff	2.r	2.r	2.r	2.r	2a	2.c
.	.	.	.	.	4ee	.	.	.	.	4g	.
=93	=93	=93	=93	=93	=93	=93	=93	=93	=93	=93	=93
2.r	4f	4F	4F	2.r	[2.aa	[2.ff	2.r	2.r	2.r	[2.a	[2.f
.	4e	4E	4E	.	.	.	.	.	.	.	.
.	4d	4D	4D	.	.	.	.	.	.	.	.
=94	=94	=94	=94	=94	=94	=94	=94	=94	=94	=94	=94
2.r	4c#	4C#	4C#	2.r	2aa]	2ff]	2.r	2.r	2.r	2a]	2f]
.	4d	4D	4D	.	.	.	.	.	.	.	.
.	4B-	4BB-	4BB-	.	8bb-	8dd	.	.	.	8b-	8d
.	.	.	.	.	8gg	8b-	.	.	.	8g	8B-
=95	=95	=95	=95	=95	=95	=95	=95	=95	=95	=95	=95
2.r	2.c	2.C	2.C	2.r	2ff	2a	2.r	2.r	2.r	2f	2A
.	.	.	.	.	4ee	4g	.	.	.	4e	4B-
=96	=96	=96	=96	=96	=96	=96	=96	=96	=96	=96	=96
4dd	8c	4F	4F	4dd	4ff	4a	8ff	[2.c	[2.c	8f	4A
.	8c	.	.	.	.	.	8cc	.	.	8cc	.
2r	8c	4r	4r	2r	4r	4r	8cc	.	.	8cc	4r
.	8c	.	.	.	.	.	8cc	.	.	8cc	.
.	8c	4E	4E	.	4gg	4cc	8bb-	.	.	8bb-	4gg 4cc 4e
.	8c	.	.	.	.	.	16aa	.	.	16aa	.
.	.	.	.	.	.	.	16gg	.	.	16gg	.
=97	=97	=97	=97	=97	=97	=97	=97	=97	=97	=97	=97
4dd	8c	4F	4F	4dd	4aa	4cc	8aa	2.c_	2.c_	8aa	4aa 4f 4cc
.	8c	.	.	.	.	.	8cc	.	.	8cc	.
2r	8c	4r	4r	2r	4r	4r	8cc	.	.	8cc	4r
.	8c	.	.	.	.	.	8cc	.	.	8cc	.
.	8c	4B-	4B-	.	4ee	4cc	8ee	.	.	8ee	4ee 4b- 4g
.	8c	.	.	.	.	.	16dd	.	.	16dd	.
.	.	.	.	.	.	.	16cc	.	.	16cc	.
=98	=98	=98	=98	=98	=98	=98	=98	=98	=98	=98	=98
4dd	8c	4A	4A	4dd	4ff	4cc	8ff	2.c_	2.c_	8ff	4ff 4f 4a
.	8c	.	.	.	.	.	8cc	.	.	8cc	.
2r	8c	4r	4r	2r	4r	4r	8cc	.	.	8cc	4r
.	8c	.	.	.	.	.	8cc	.	.	8cc	.
.	8c	4E	4E	.	4gg	4cc	8bb-	.	.	8bb-	4gg 4cc 4e
.	8c	.	.	.	.	.	16aa	.	.	16aa	.
.	.	.	.	.	.	.	16gg	.	.	16gg	.
=99	=99	=99	=99	=99	=99	=99	=99	=99	=99	=99	=99
4dd	8c	4F	4F	4dd	4aa	4cc	8aa	2.c]	2.c]	8aa	4f 4aa 4cc
.	8c	.	.	.	.	.	8cc	.	.	8cc	.
2r	8c	4r	4r	2r	4r	4r	8cc	.	.	8cc	4r
.	8c	.	.	.	.	.	8cc	.	.	8cc	.
.	8c	4B-	4B-	.	4ee	4cc	8ee	.	.	8ee	4ee 4b- 4g
.	8c	.	.	.	.	.	16dd	.	.	16dd	.
.	.	.	.	.	.	.	16cc	.	.	16cc	.
=100	=100	=100	=100	=100	=100	=100	=100	=100	=100	=100	=100
4dd	4f	4A	4A	4dd	4ff	4cc	4ff	4f	4f	8ff	8ff
.	.	.	.	.	.	.	.	.	.	8f	8f
2r	4d	4D	4D	2r	2r	2r	4dd	4d	4d	8dd	8dd
.	.	.	.	.	.	.	.	.	.	8d	8d
.	4B-	4BB-	4BB-	.	.	.	4b-	4B-	4B-	8b-	8b-
.	.	.	.	.	.	.	.	.	.	8B-	8B-
=101	=101	=101	=101	=101	=101	=101	=101	=101	=101	=101	=101
2.r	4G	4GG	4GG	2.r	2.r	2.r	4g	4G	4G	8g	8g
.	.	.	.	.	.	.	.	.	.	8G	8G
.	4c	4C	4C	.	.	.	4cc	4c	4c	8cc	8cc
.	.	.	.	.	.	.	.	.	.	8c	8c
.	4e	4E	4E	.	.	.	4ee	4e	4e	8ee	8ee
.	.	.	.	.	.	.	.	.	.	8e	8e
=102	=102	=102	=102	=102	=102	=102	=102	=102	=102	=102	=102
2.r	4g	4G	4G	2.r	2r	2r	4gg	4g	4g	8gg	8gg
.	.	.	.	.	.	.	.	.	.	8g	8g
.	4b-	4B-	4B-	.	.	.	4bb-	4r	4r	8bb-	8bb-
.	.	.	.	.	.	.	.	.	.	8b-	8b-
.	8E	8EE	8EE	.	4ddd	4bb-	4ddd	8EE	8EE	4ddd	4bb-
.	8e	8E	8E	.	.	.	.	8E	8E	.	.
=103	=103	=103	=103	=103	=103	=103	=103	=103	=103	=103	=103
2.r	8F	8FF	8FF	2.r	4ccc	4aa	4ccc	8FF	8FF	16ccc	16aa
.	.	.	.	.	.	.	.	.	.	16ccc	16aa
.	8f	8F	8F	.	.	.	.	8F	8F	16ccc	16aa
.	.	.	.	.	.	.	.	.	.	16ccc	16aa
.	8G	8GG	8GG	.	4bb-	4gg	4bb-	8GG	8GG	16bb-	16gg
.	.	.	.	.	.	.	.	.	.	16bb-	16gg
.	8g	8G	8G	.	.	.	.	8G	8G	16bb-	16gg
.	.	.	.	.	.	.	.	.	.	16bb-	16gg
.	8A	8AA	8AA	.	4aa	4ff	4aa	8AA	8AA	16aa	16ff
.	.	.	.	.	.	.	.	.	.	16aa	16ff
.	8a	8A	8A	.	.	.	.	8A	8A	16aa	16ff
.	.	.	.	.	.	.	.	.	.	16aa	16ff
=104	=104	=104	=104	=104	=104	=104	=104	=104	=104	=104	=104
2.r	8B-	8BB-	8BB-	2.r	4gg	4dd	4gg	8BB-	8BB-	16gg	16dd
.	.	.	.	.	.	.	.	.	.	16gg	16dd
.	8b-	8B-	8B-	.	.	.	.	8B-	8B-	16gg	16dd
.	.	.	.	.	.	.	.	.	.	16gg	16dd
.	8c	8C	8C	.	4ff	4a	4ff	8C	8C	16ff	16a
.	.	.	.	.	.	.	.	.	.	16ff	16a
.	8cc	8c	8c	.	.	.	.	8c	8c	16ff	16a
.	.	.	.	.	.	.	.	.	.	16ff	16a
.	8c	8C	8C	.	4ee	4g	4ee	8C	8C	16ee	16g
.	.	.	.	.	.	.	.	.	.	16ee	16g
.	8cc	8c	8c	.	.	.	.	8c	8c	16ee	16g
.	.	.	.	.	.	.	.	.	.	16ee	16g
=105	=105	=105	=105	=105	=105	=105	=105	=105	=105	=105	=105
4g	4f	4F	4F	4g	4ff	4a	4ff	4F	4F	16ff	4f
.	.	.	.	.	.	.	.	.	.	16ff	.
.	.	.	.	.	.	.	.	.	.	16aa	.
.	.	.	.	.	.	.	.	.	.	16aa	.
2r	2g	2F	2F	2r	2ee	2b-	2gg	2F	2F	16gg	2B- 2e
.	.	.	.	.	.	.	.	.	.	16gg	.
.	.	.	.	.	.	.	.	.	.	16bb-	.
.	.	.	.	.	.	.	.	.	.	16bb-	.
.	.	.	.	.	.	.	.	.	.	16ee	.
.	.	.	.	.	.	.	.	.	.	16ee	.
.	.	.	.	.	.	.	.	.	.	16gg	.
.	.	.	.	.	.	.	.	.	.	16gg	.
=106	=106	=106	=106	=106	=106	=106	=106	=106	=106	=106	=106
4g	4f	4F	4F	4g	4ff	4a	4ff	4F	4F	16ff	4A 4f
.	.	.	.	.	.	.	.	.	.	16ff	.
.	.	.	.	.	.	.	.	.	.	16aa	.
.	.	.	.	.	.	.	.	.	.	16aa	.
2r	2g	2F	2F	2r	2ee	2b-	2gg	2F	2F	16gg	2B- 2e
.	.	.	.	.	.	.	.	.	.	16gg	.
.	.	.	.	.	.	.	.	.	.	16bb-	.
.	.	.	.	.	.	.	.	.	.	16bb-	.
.	.	.	.	.	.	.	.	.	.	16ee	.
.	.	.	.	.	.	.	.	.	.	16ee	.
.	.	.	.	.	.	.	.	.	.	16gg	.
.	.	.	.	.	.	.	.	.	.	16gg	.
=107	=107	=107	=107	=107	=107	=107	=107	=107	=107	=107	=107
4g	4f	4F	4F	4g	4ff	4a	4ff	4F	4F	16ff	4A 4f
.	.	.	.	.	.	.	.	.	.	16ff	.
.	.	.	.	.	.	.	.	.	.	16aa	.
.	.	.	.	.	.	.	.	.	.	16aa	.
2r	2g	2F	2F	2r	2ee	2b-	2gg	2F	2F	16gg	2B- 2e
.	.	.	.	.	.	.	.	.	.	16gg	.
.	.	.	.	.	.	.	.	.	.	16bb-	.
.	.	.	.	.	.	.	.	.	.	16bb-	.
.	.	.	.	.	.	.	.	.	.	16ee	.
.	.	.	.	.	.	.	.	.	.	16ee	.
.	.	.	.	.	.	.	.	.	.	16gg	.
.	.	.	.	.	.	.	.	.	.	16gg	.
=108	=108	=108	=108	=108	=108	=108	=108	=108	=108	=108	=108
2.g	4a	4F	4F	2.g	8ff	8a	8ff	4F	4F	16ff	16f
.	.	.	.	.	.	.	.	.	.	16ff	16f
.	.	.	.	.	8aa	8ff	8aa	.	.	16aa	16cc
.	.	.	.	.	.	.	.	.	.	16aa	16cc
.	4a	4F	4F	.	8ccc	8aa	8ccc	4F	4F	16ccc	16a
.	.	.	.	.	.	.	.	.	.	16ccc	16a
.	.	.	.	.	8aa	8ff	8aa	.	.	16aa	16cc
.	.	.	.	.	.	.	.	.	.	16aa	16cc
.	4a	4F	4F	.	8ccc	8aa	8ccc	4F	4F	16ccc	16a
.	.	.	.	.	.	.	.	.	.	16ccc	16a
.	.	.	.	.	8aa	8ff	8aa	.	.	16aa	16cc
.	.	.	.	.	.	.	.	.	.	16aa	16cc
=109	=109	=109	=109	=109	=109	=109	=109	=109	=109	=109	=109
2.g	4a	4F	4F	2.g	8ff	8aa	8ff	4F	4F	16ff	16a
.	.	.	.	.	.	.	.	.	.	16ff	16a
.	.	.	.	.	8aa	8ff	8aa	.	.	16aa	16cc
.	.	.	.	.	.	.	.	.	.	16aa	16cc
.	4a	4F	4F	.	8cc	8cc	8cc	4F	4F	16cc	16a
.	.	.	.	.	.	.	.	.	.	16cc	16a
.	.	.	.	.	8ff	8ff	8ff	.	.	16ff	16cc
.	.	.	.	.	.	.	.	.	.	16ff	16cc
.	4a	4F	4F	.	8a	8a	8a	4F	4F	16a	16a
.	.	.	.	.	.	.	.	.	.	16a	16a
.	.	.	.	.	8cc	8cc	8cc	.	.	16cc	16cc
.	.	.	.	.	.	.	.	.	.	16cc	16cc
=110	=110	=110	=110	=110	=110	=110	=110	=110	=110	=110	=110
4g	4a 4f	4F	4F	4g	4f	4f	4f	4F	4F	4f	4a
4g	4f 4a	4F	4F	4g	4ff	4a	4ff	4F	4F	4ff 4a	4ff 4a
4g	4f 4a	4F	4F	4g	4ff	4a	4aa	4F	4F	4ff 4a	4ff 4a
=111	=111	=111	=111	=111	=111	=111	=111	=111	=111	=111	=111
4g	4a 4f	4F	4F	4g	4ff	4a	4ff	4F	4F	4ff 4a	4ff 4a
2r	2r	2r	2r	2r	2r	2r	2r	2r	2r	2r	2r
=112	=112	=112	=112	=112	=112	=112	=112	=112	=112	=112	=112
2.r	4a 4d	4D	4D	2.r	4ff#	4cc	4aa	4D	4D	4ff# 4cc 4d	4ff# 4cc 4d
.	4a 4d	4D	4D	.	4ff#	4cc	4aa	4D	4D	4ff# 4d 4cc	4ff# 4cc 4d
.	4a 4d	4D	4D	.	4ff#	4cc	4aa	4D	4D	4ff# 4cc 4d	4ff# 4cc 4d
=113	=113	=113	=113	=113	=113	=113	=113	=113	=113	=113	=113
2.r	4a 4d	4D	4D	2.r	4ff#	4cc	4aa	4D	4D	4ff# 4cc 4d	4d 4ff# 4cc
.	2r	2r	2r	.	2r	2r	2r	2r	2r	2r	2r
=114	=114	=114	=114	=114	=114	=114	=114	=114	=114	=114	=114
2.r	8e-	8E-	8E-	2.r	[2.gg	[2.b-	[2.bb-	[2.B-	[2.G	4gg 4b- 4e-	8g 8B-
.	8e-	8E-	8E-	.	.	.	.	.	.	.	4g 4B-
.	8e-	8E-	8E-	.	.	.	.	.	.	4ee-	.
.	8e-	8E-	8E-	.	.	.	.	.	.	.	4g 4B-
.	8e-	8E-	8E-	.	.	.	.	.	.	4b-	.
.	8e-	8E-	8E-	.	.	.	.	.	.	.	8g 8B-
=115	=115	=115	=115	=115	=115	=115	=115	=115	=115	=115	=115
2.r	8e-	8E-	8E-	2.r	2.gg]	2.b-]	2.bb-]	2.B-]	2.G]	4g	8g 8B-
.	8e-	8E-	8E-	.	.	.	.	.	.	.	4B- 4g
.	8e-	8E-	8E-	.	.	.	.	.	.	4e-	.
.	8e-	8E-	8E-	.	.	.	.	.	.	.	4B- 4g
.	8e-	8E-	8E-	.	.	.	.	.	.	4B-	.
.	8e-	8E-	8E-	.	.	.	.	.	.	.	8B- 8g
=116	=116	=116	=116	=116	=116	=116	=116	=116	=116	=116	=116
2.r	8f	8E-	8E-	2.r	[2.aa-	[2.ff	[2.ccc	[2.A-	[2.F	4A-	8a- 8c
.	8f	8E-	8E-	.	.	.	.	.	.	.	4c 4a-
.	8f	8E-	8E-	.	.	.	.	.	.	4c	.
.	8f	8E-	8E-	.	.	.	.	.	.	.	4a- 4c
.	8f	8E-	8E-	.	.	.	.	.	.	4f	.
.	8f	8E-	8E-	.	.	.	.	.	.	.	8a- 8c
=117	=117	=117	=117	=117	=117	=117	=117	=117	=117	=117	=117
2.r	8f	8E-	8E-	2.r	2.aa-_	2.ff_	2.ccc]	2.A-]	2.F]	4a-	8c 8a-
.	8f	8E-	8E-	.	.	.	.	.	.	.	4a- 4c
.	8f	8E-	8E-	.	.	.	.	.	.	4cc	.
.	8f	8E-	8E-	.	.	.	.	.	.	.	4a- 4c
.	8f	8E-	8E-	.	.	.	.	.	.	4ff	.
.	8f	8E-	8E-	.	.	.	.	.	.	.	8c 8a-
=118	=118	=118	=118	=118	=118	=118	=118	=118	=118	=118	=118
2.r	8f	8D	8D	2.r	2.aa-_	2.ff_	[2.bb-	[2.A-	[2.F	4aa- 4b- 4d	8a- 8B-
.	8f	8D	8D	.	.	.	.	.	.	.	4a- 4B-
.	8f	8D	8D	.	.	.	.	.	.	4ff	.
.	8f	8D	8D	.	.	.	.	.	.	.	4a- 4B-
.	8f	8D	8D	.	.	.	.	.	.	4dd	.
.	8f	8D	8D	.	.	.	.	.	.	.	8B- 8a-
=119	=119	=119	=119	=119	=119	=119	=119	=119	=119	=119	=119
2.r	8f	8D	8D	2.r	2.aa-]	2.ff]	2.bb-]	2.A-]	2.F]	4b-	8a- 8B-
.	8f	8D	8D	.	.	.	.	.	.	.	4B- 4a-
.	8f	8D	8D	.	.	.	.	.	.	4a-	.
.	8f	8D	8D	.	.	.	.	.	.	.	4B- 4a-
.	8f	8D	8D	.	.	.	.	.	.	4f	.
.	8f	8D	8D	.	.	.	.	.	.	.	8a- 8B-
=120	=120	=120	=120	=120	=120	=120	=120	=120	=120	=120	=120
2.r	8e-	8E-	8E-	2.r	[2.gg	[2.ee-	[2.bb-	[2.G	[2.E-	4e-	8B- 8g
.	8e-	8E-	8E-	.	.	.	.	.	.	.	4B- 4g
.	8e-	8E-	8E-	.	.	.	.	.	.	4g	.
.	8e-	8E-	8E-	.	.	.	.	.	.	.	4g 4B-
.	8e-	8E-	8E-	.	.	.	.	.	.	4b-	.
.	8e-	8E-	8E-	.	.	.	.	.	.	.	8B- 8g
=121	=121	=121	=121	=121	=121	=121	=121	=121	=121	=121	=121
2.r	8e-	8E-	8E-	2.r	2.gg]	2.ee-]	2.bb-]	2.G]	2.E-]	4ee-	8B- 8g
.	8e-	8E-	8E-	.	.	.	.	.	.	.	4g 4B-
.	8e-	8E-	8E-	.	.	.	.	.	.	4gg	.
.	8e-	8E-	8E-	.	.	.	.	.	.	.	4g 4B-
.	8e-	8E-	8E-	.	.	.	.	.	.	4bb-	.
.	8e-	8E-	8E-	.	.	.	.	.	.	.	8g 8B-
=122	=122	=122	=122	=122	=122	=122	=122	=122	=122	=122	=122
2.r	8e	8E	8E	2.r	[2.bb-	[2.dd-	[2.gg	[2.B-	[2.G	4ddd-	8b- 8g
.	8e	8E	8E	.	.	.	.	.	.	.	4b- 4g
.	8e	8E	8E	.	.	.	.	.	.	4bb-	.
.	8e	8E	8E	.	.	.	.	.	.	.	4b- 4g
.	8e	8E	8E	.	.	.	.	.	.	4gg	.
.	8e	8E	8E	.	.	.	.	.	.	.	8b- 8g
=123	=123	=123	=123	=123	=123	=123	=123	=123	=123	=123	=123
2.r	8c	8E	8E	2.r	2.bb-]	2.dd-]	2.gg]	2.B-]	2.G]	4ee	8b- 8g
.	8c	8E	8E	.	.	.	.	.	.	.	4b- 4g
.	8c	8E	8E	.	.	.	.	.	.	4ccc	.
.	8c	8E	8E	.	.	.	.	.	.	.	4b- 4g
.	8c	8E	8E	.	.	.	.	.	.	4bb-	.
.	8c	8E	8E	.	.	.	.	.	.	.	8b- 8g
=124	=124	=124	=124	=124	=124	=124	=124	=124	=124	=124	=124
[2.g	8f	8F	8F	[2.g	[2.aa-	[2.cc	[2.aa-	[2.A-	[2.F	4aa-	8a- 8c
.	8f	8F	8F	.	.	.	.	.	.	.	4a- 4c
.	8f	8F	8F	.	.	.	.	.	.	4ff	.
.	8f	8F	8F	.	.	.	.	.	.	.	4a- 4c
.	8f	8F	8F	.	.	.	.	.	.	4cc	.
.	8f	8F	8F	.	.	.	.	.	.	.	8c 8a-
=125	=125	=125	=125	=125	=125	=125	=125	=125	=125	=125	=125
2.g_	8c	8F	8F	2.g_	2.aa-_	2.cc]	2.aa-]	2.A-]	2.F]	4a-	8a- 8A-
.	8c	8F	8F	.	.	.	.	.	.	.	4a- 4A-
.	8c	8F	8F	.	.	.	.	.	.	4f	.
.	8c	8F	8F	.	.	.	.	.	.	.	4a- 4A-
.	8c	8F	8F	.	.	.	.	.	.	4c	.
.	8c	8F	8F	.	.	.	.	.	.	.	8a- 8A-
=126	=126	=126	=126	=126	=126	=126	=126	=126	=126	=126	=126
2.g]	8d-	8D-	8D-	2.g]	2.aa-_	[2.ff	[2.ff	[2.A-	[2.F	4aa-	8A- 8f
.	8d-	8D-	8D-	.	.	.	.	.	.	.	4f 4A-
.	8d-	8D-	8D-	.	.	.	.	.	.	4ff	.
.	8d-	8D-	8D-	.	.	.	.	.	.	.	4A- 4f
.	8d-	8D-	8D-	.	.	.	.	.	.	4dd-	.
.	8d-	8D-	8D-	.	.	.	.	.	.	.	8f 8A-
=127	=127	=127	=127	=127	=127	=127	=127	=127	=127	=127	=127
4g	8d-	8D-	8D-	4g	2.aa-_	2.ff]	2.ff]	2.A-]	2.F]	4a-	8A- 8f
.	8d-	8D-	8D-	.	.	.	.	.	.	.	4f 4A-
2r	8d-	8D-	8D-	2r	.	.	.	.	.	4f	.
.	8d-	8D-	8D-	.	.	.	.	.	.	.	4f 4A-
.	8d-	8D-	8D-	.	.	.	.	.	.	4d-	.
.	8d-	8D-	8D-	.	.	.	.	.	.	.	8A- 8f
=128	=128	=128	=128	=128	=128	=128	=128	=128	=128	=128	=128
2.r	8e-	8C	8C	2.r	2.aa-_	[2.ee-	[2.gg-	[2.A-	[2.E-	4aa-	8g- 8A-
.	8e-	8C	8C	.	.	.	.	.	.	.	4A- 4g-
.	8e-	8C	8C	.	.	.	.	.	.	4gg-	.
.	8e-	8C	8C	.	.	.	.	.	.	.	4A- 4g-
.	8e-	8C	8C	.	.	.	.	.	.	4ee-	.
.	8e-	8C	8C	.	.	.	.	.	.	.	8g- 8A-
=129	=129	=129	=129	=129	=129	=129	=129	=129	=129	=129	=129
2.r	8e-	8C	8C	2.r	2.aa-]	2.ee-]	2.gg-]	2.A-_	2.E-]	4cc	8A- 8g-
.	8e-	8C	8C	.	.	.	.	.	.	.	4g- 4A-
.	8e-	8C	8C	.	.	.	.	.	.	4a-	.
.	8e-	8C	8C	.	.	.	.	.	.	.	4g- 4A-
.	8e-	8C	8C	.	.	.	.	.	.	4g-	.
.	8e-	8C	8C	.	.	.	.	.	.	.	8g- 8A-
=130	=130	=130	=130	=130	=130	=130	=130	=130	=130	=130	=130
2.r	8d-	8D-	8D-	2.r	2.aa-	2.ff	2.ff	2.A-]	2.F	2.f	8f 8A-
.	8d-	8D-	8D-	.	.	.	.	.	.	.	4A- 4f
.	8d-	8D-	8D-	.	.	.	.	.	.	.	.
.	8d-	8D-	8D-	.	.	.	.	.	.	.	8.A- 8.f
.	8d-	8D-	8D-	.	.	.	.	.	.	.	.
.	.	.	.	.	.	.	.	.	.	.	16A-
.	8d-	8D-	8D-	.	.	.	.	.	.	.	8A- 8f
=131	=131	=131	=131	=131	=131	=131	=131	=131	=131	=131	=131
2.r	2.d	2.D	2.D	2.r	2.aa-	2.ff	2.aa-	2.A-	2.F	2.a- 2.A-	8B- 8f
.	.	.	.	.	.	.	.	.	.	.	4B- 4f
.	.	.	.	.	.	.	.	.	.	.	4f 4B-
.	.	.	.	.	.	.	.	.	.	.	8B- 8f
=132	=132	=132	=132	=132	=132	=132	=132	=132	=132	=132	=132
2.r	4e-	4E-	4E-	2.r	4gg	4ee-	4gg	4E-	4E-	4g	4e- 4G
.	4e-	4E-	4E-	.	4ee-	4g	4ee-	4E-	4E-	4G 4e-	4e- 4G
.	4e-	4E-	4E-	.	4ee-	4g	4ee-	4E-	4E-	4e- 4G	4e- 4G
=133	=133	=133	=133	=133	=133	=133	=133	=133	=133	=133	=133
2.r	4e-	4E-	4E-	2.r	4ee-	4g	4ee-	4E-	4E-	4G 4e-	4e- 4G
.	2r	2r	2r	.	2r	2r	2r	2r	2r	2r	2r
=134	=134	=134	=134	=134	=134	=134	=134	=134	=134	=134	=134
2.r	2.r	4AA-	4AA-	2.r	2.r	2.r	2.r	2.r	2.r	8a-	[2.a-
.	.	.	.	.	.	.	.	.	.	8r	.
.	.	2r	2r	.	.	.	.	.	.	8g	.
.	.	.	.	.	.	.	.	.	.	8r	.
.	.	.	.	.	.	.	.	.	.	8f	.
.	.	.	.	.	.	.	.	.	.	8r	.
=135	=135	=135	=135	=135	=135	=135	=135	=135	=135	=135	=135
2.r	2.r	4C	4C	2.r	2.r	2.r	2.r	2.r	2.r	8e-	2.a-_
.	.	.	.	.	.	.	.	.	.	8r	.
.	.	2r	2r	.	.	.	.	.	.	8d-	.
.	.	.	.	.	.	.	.	.	.	8r	.
.	.	.	.	.	.	.	.	.	.	8c	.
.	.	.	.	.	.	.	.	.	.	8r	.
=136	=136	=136	=136	=136	=136	=136	=136	=136	=136	=136	=136
2.r	[2.d-	[2.d-	4E-	2.r	2.r	2.r	2.r	2.r	2.r	4B-	4a-]
.	.	.	2r	.	.	.	.	.	.	2r	4g
.	.	.	.	.	.	.	.	.	.	.	4e-
=137	=137	=137	=137	=137	=137	=137	=137	=137	=137	=137	=137
2.r	4d-]	4d-]	2.r	2.r	2.r	2.r	2.r	2.r	2.r	2.r	4d-
.	4B-	4B-	.	.	.	.	.	.	.	.	2r
.	4G	4G	.	.	.	.	.	.	.	.	.
=138	=138	=138	=138	=138	=138	=138	=138	=138	=138	=138	=138
2.r	4E-	4E-	4E-	2.r	2.r	2.r	2.r	2.r	2.r	8dd-	[2.b-
.	.	.	.	.	.	.	.	.	.	8r	.
.	2r	2r	2r	.	.	.	.	.	.	8b-	.
.	.	.	.	.	.	.	.	.	.	8r	.
.	.	.	.	.	.	.	.	.	.	8g	.
.	.	.	.	.	.	.	.	.	.	8r	.
=139	=139	=139	=139	=139	=139	=139	=139	=139	=139	=139	=139
2.r	2.r	4G	4G	2.r	2.r	2.r	2.r	2.r	2.r	8e-	2.b-_
.	.	.	.	.	.	.	.	.	.	8r	.
.	.	2r	2r	.	.	.	.	.	.	8f	.
.	.	.	.	.	.	.	.	.	.	8r	.
.	.	.	.	.	.	.	.	.	.	8d-	.
.	.	.	.	.	.	.	.	.	.	8r	.
=140	=140	=140	=140	=140	=140	=140	=140	=140	=140	=140	=140
2.r	[2.e-	[2.e-	4AA-	2.r	2.r	2.r	2.r	2.r	2.r	4c	4b-]
.	.	.	2r	.	.	.	.	.	.	2r	4cc
.	.	.	.	.	.	.	.	.	.	.	4g
=141	=141	=141	=141	=141	=141	=141	=141	=141	=141	=141	=141
2.r	4e-]	4e-]	2.r	2.r	2.r	2.r	2.r	2.r	2.r	2.r	4a-
.	4c	4c	.	.	.	.	.	.	.	.	2r
.	4A-	4A-	.	.	.	.	.	.	.	.	.
=142	=142	=142	=142	=142	=142	=142	=142	=142	=142	=142	=142
2.r	4E-	4E-	4C	2.r	2.r	2.r	2.r	2.r	2.r	8ee-	[2.ee-
.	.	.	.	.	.	.	.	.	.	8r	.
.	2r	2r	2r	.	.	.	.	.	.	8cc	.
.	.	.	.	.	.	.	.	.	.	8r	.
.	.	.	.	.	.	.	.	.	.	8b-	.
.	.	.	.	.	.	.	.	.	.	8r	.
=143	=143	=143	=143	=143	=143	=143	=143	=143	=143	=143	=143
2.r	4c	4F	4F	2.r	2.r	2.r	2.r	2.r	2.r	8a	4ee-]
.	.	.	.	.	.	.	.	.	.	8r	.
.	2r	2r	2r	.	.	.	.	.	.	8gg-	4cc
.	.	.	.	.	.	.	.	.	.	8r	.
.	.	.	.	.	.	.	.	.	.	8a	4a
.	.	.	.	.	.	.	.	.	.	8r	.
=144	=144	=144	=144	=144	=144	=144	=144	=144	=144	=144	=144
2.r	4d-	4B-	4B-	2.r	2.r	2.r	2.r	2.r	2.r	8b-	4b-
.	.	.	.	.	.	.	.	.	.	8r	.
.	2r	2r	2r	.	.	.	.	.	.	8dd-	2r
.	.	.	.	.	.	.	.	.	.	8r	.
.	.	.	.	.	.	.	.	.	.	8ff	.
.	.	.	.	.	.	.	.	.	.	8r	.
=145	=145	=145	=145	=145	=145	=145	=145	=145	=145	=145	=145
2.r	2.r	2.r	2.r	2.r	2.r	2.r	2.r	2.r	2.r	8bb-	2.r
.	.	.	.	.	.	.	.	.	.	8r	.
.	.	.	.	.	.	.	.	.	.	8ccc	.
.	.	.	.	.	.	.	.	.	.	8r	.
.	.	.	.	.	.	.	.	.	.	8ddd-	.
.	.	.	.	.	.	.	.	.	.	8r	.
=146	=146	=146	=146	=146	=146	=146	=146	=146	=146	=146	=146
2.r	4f	4A	4A	2.r	2.r	2.r	2.r	2.r	2.r	8ccc	4f 4cc
.	.	.	.	.	.	.	.	.	.	8r	.
.	2r	2r	2r	.	.	.	.	.	.	8ee	2r
.	.	.	.	.	.	.	.	.	.	8r	.
.	.	.	.	.	.	.	.	.	.	8gg	.
.	.	.	.	.	.	.	.	.	.	8r	.
=147	=147	=147	=147	=147	=147	=147	=147	=147	=147	=147	=147
2.r	2.r	2.r	2.r	2.r	2.r	2.r	2.r	2.r	2.r	8ff	2.r
.	.	.	.	.	.	.	.	.	.	8r	.
.	.	.	.	.	.	.	.	.	.	8cc	.
.	.	.	.	.	.	.	.	.	.	8r	.
.	.	.	.	.	.	.	.	.	.	8a	.
.	.	.	.	.	.	.	.	.	.	8r	.
=148	=148	=148	=148	=148	=148	=148	=148	=148	=148	=148	=148
2.r	4f	4A-	4A-	2.r	2.r	2.r	2.r	2.r	2.r	8f	4f 4c
.	.	.	.	.	.	.	.	.	.	8r	.
.	2r	2r	2r	.	.	.	.	.	.	8a-	2r
.	.	.	.	.	.	.	.	.	.	8r	.
.	.	.	.	.	.	.	.	.	.	8cc	.
.	.	.	.	.	.	.	.	.	.	8r	.
=149	=149	=149	=149	=149	=149	=149	=149	=149	=149	=149	=149
2.r	2.r	2.r	2.r	2.r	2.r	2.r	2.r	2.r	2.r	8ff	2.r
.	.	.	.	.	.	.	.	.	.	8r	.
.	.	.	.	.	.	.	.	.	.	8aa-	.
.	.	.	.	.	.	.	.	.	.	8r	.
.	.	.	.	.	.	.	.	.	.	8ccc	.
.	.	.	.	.	.	.	.	.	.	8r	.
=150	=150	=150	=150	=150	=150	=150	=150	=150	=150	=150	=150
2.r	4g	4G	4G	2.r	2.r	2.r	2.r	2.r	2.r	8bb	4d 4f
.	.	.	.	.	.	.	.	.	.	8r	.
.	2r	2r	2r	.	.	.	.	.	.	8ddd	2r
.	.	.	.	.	.	.	.	.	.	8r	.
.	.	.	.	.	.	.	.	.	.	8ff	.
.	.	.	.	.	.	.	.	.	.	8r	.
=151	=151	=151	=151	=151	=151	=151	=151	=151	=151	=151	=151
2.r	2.r	2.r	2.r	2.r	2.r	2.r	2.r	2.r	2.r	8aa-	2.r
.	.	.	.	.	.	.	.	.	.	8r	.
.	.	.	.	.	.	.	.	.	.	8gg	.
.	.	.	.	.	.	.	.	.	.	8r	.
.	.	.	.	.	.	.	.	.	.	8ff	.
.	.	.	.	.	.	.	.	.	.	8r	.
=152	=152	=152	=152	=152	=152	=152	=152	=152	=152	=152	=152
2.r	[2.e-	[2.c	[2.c	2.r	2.r	2.r	2.r	[2.e-	[2.e-	4ee-	8cc
.	.	.	.	.	.	.	.	.	.	.	8r
.	.	.	.	.	.	.	.	.	.	2r	8b-
.	.	.	.	.	.	.	.	.	.	.	8r
.	.	.	.	.	.	.	.	.	.	.	8a-
.	.	.	.	.	.	.	.	.	.	.	8r
=153	=153	=153	=153	=153	=153	=153	=153	=153	=153	=153	=153
2.r	2.e-]	2.c_	2.c_	2.r	2.r	2.r	2.r	2.e-]	2.e-]	2.r	8g
.	.	.	.	.	.	.	.	.	.	.	8r
.	.	.	.	.	.	.	.	.	.	.	8f
.	.	.	.	.	.	.	.	.	.	.	8r
.	.	.	.	.	.	.	.	.	.	.	8e-
.	.	.	.	.	.	.	.	.	.	.	8r
=154	=154	=154	=154	=154	=154	=154	=154	=154	=154	=154	=154
2.r	4f	4c]	4c]	2.r	[2.ff	2dd	2.r	4f	4f	2.r	4d
.	2r	4B	4B	.	.	.	.	2r	2r	.	2r
.	.	4A-	4A-	.	.	4cc	.	.	.	.	.
=155	=155	=155	=155	=155	=155	=155	=155	=155	=155	=155	=155
2.r	2.r	4G	4G	2.r	4ff]	4b	2.r	2.r	2.r	2.r	2.r
.	.	2r	2r	.	4dd	2r	.	.	.	.	.
.	.	.	.	.	4cc	.	.	.	.	.	.
=156	=156	=156	=156	=156	=156	=156	=156	=156	=156	=156	=156
2.r	[2.f	[2.d	[2.d	2.r	4b	2.r	2.r	2.r	2.r	4f	[2.f
.	.	.	.	.	2r	.	.	.	.	4b	.
.	.	.	.	.	.	.	.	.	.	4dd	.
=157	=157	=157	=157	=157	=157	=157	=157	=157	=157	=157	=157
2.r	2.f_	2.d_	2.d_	2.r	2.r	2.r	2.r	2.r	2.r	4ff	2.f_
.	.	.	.	.	.	.	.	.	.	4aa-	.
.	.	.	.	.	.	.	.	.	.	4b	.
=158	=158	=158	=158	=158	=158	=158	=158	=158	=158	=158	=158
2.r	4f]	4d]	4d]	2.r	[2.gg	2cc	2.r	2.r	2.r	4cc	4f]
.	4g	4e-	4e-	.	.	.	.	.	.	2r	4g
.	4d	4B	4B	.	.	4ff	.	.	.	.	4d
=159	=159	=159	=159	=159	=159	=159	=159	=159	=159	=159	=159
2.r	4e-	4c	4c	2.r	4gg]	4ee-	2.r	2.r	2.r	2.r	4e-
.	2r	2r	2r	.	4ff	2r	.	.	.	.	2r
.	.	.	.	.	4dd	.	.	.	.	.	.
=160	=160	=160	=160	=160	=160	=160	=160	=160	=160	=160	=160
2.r	2.r	[2.e-	[2.e-	2.r	4cc	2.r	2.r	2.r	2.r	4g	2.r
.	.	.	.	.	2r	.	.	.	.	4cc	.
.	.	.	.	.	.	.	.	.	.	4ee-	.
=161	=161	=161	=161	=161	=161	=161	=161	=161	=161	=161	=161
2.r	2.g	2.e-_	2.e-_	2.r	2.r	2.r	2.r	2.r	2.r	4gg	[2.cc
.	.	.	.	.	.	.	.	.	.	4ccc	.
.	.	.	.	.	.	.	.	.	.	4bb-	.
=162	=162	=162	=162	=162	=162	=162	=162	=162	=162	=162	=162
2.r	[2.f	4e-]	4e-]	2.r	2.r	2.r	2.r	[2.f	[2.f	[2.aa-	2.cc]
.	.	4f	4f	.	.	.	.	.	.	.	.
.	.	4e-	4e-	.	.	.	.	.	.	.	.
=163	=163	=163	=163	=163	=163	=163	=163	=163	=163	=163	=163
2.r	2.f]	[2.d	[2.d	2.r	2.r	2.r	2.r	2.f]	2.f]	4aa-]	[2.b-
.	.	.	.	.	.	.	.	.	.	4bb-	.
.	.	.	.	.	.	.	.	.	.	4aa-	.
=164	=164	=164	=164	=164	=164	=164	=164	=164	=164	=164	=164
2.r	[2.e-	4d]	4d]	2.r	2.r	2.r	2.r	[2.e-	[2.e-	[2.gg	2.b-]
.	.	4e-	4e-	.	.	.	.	.	.	.	.
.	.	4d	4d	.	.	.	.	.	.	.	.
=165	=165	=165	=165	=165	=165	=165	=165	=165	=165	=165	=165
2.r	2.e-]	2.c	2.c	2.r	2.r	2.r	2.r	2.e-]	2.e-]	4gg]	[2.a-
.	.	.	.	.	.	.	.	.	.	4aa-	.
.	.	.	.	.	.	.	.	.	.	4gg	.
=166	=166	=166	=166	=166	=166	=166	=166	=166	=166	=166	=166
2.r	2d	4d	4d	2.r	2.r	2.r	2.r	2d	2d	4ff	4a-]
.	.	4B	4B	.	.	.	.	.	.	4gg	2g
.	4c	4c	4c	.	.	.	.	4c	4c	4ee-	.
=167	=167	=167	=167	=167	=167	=167	=167	=167	=167	=167	=167
2.r	4c	4A	4A	2.r	2.r	2.r	2.r	4c	4c	4ff	2f
.	4B-	4B-	4B-	.	.	.	.	4B-	4B-	4dd	.
.	4B-	4G	4G	.	.	.	.	4B-	4B-	4ee-	[4e-
=168	=168	=168	=168	=168	=168	=168	=168	=168	=168	=168	=168
2.r	4A	4A	4A	2.r	2.r	2.r	2.r	4A	4A	4cc	4e-]
.	4c	2F#	2F#	.	.	.	.	4c	4c	4aa	[2d
.	4A	.	.	.	.	.	.	4A	4A	4cc	.
=169	=169	=169	=169	=169	=169	=169	=169	=169	=169	=169	=169
2.r	4G	4G	4G	2.r	2.r	2.r	2.r	4G	4G	4b-	4d]
.	4E-	2E-	2E-	.	.	.	.	2E-	2E-	4gg	4b-
.	4e-	.	.	.	.	.	.	.	.	4cc#	4g
=170	=170	=170	=170	=170	=170	=170	=170	=170	=170	=170	=170
2.r	4d	4D	4D	2.r	2.r	2.r	2.r	4D	4D	[2.dd	4f#
.	4f#	4F#	4F#	.	.	.	.	4F#	4F#	.	4a
.	4a	4A	4A	.	.	.	.	4A	4A	.	4f#
=171	=171	=171	=171	=171	=171	=171	=171	=171	=171	=171	=171
2.r	4d	4d	4d	2.r	2.r	2.r	2.r	4d	4d	4dd]	4d
.	2r	2r	2r	.	.	.	.	2r	2r	4cc	2r
.	.	.	.	.	.	.	.	.	.	4a	.
=172	=172	=172	=172	=172	=172	=172	=172	=172	=172	=172	=172
2.r	4g	4G	4G	2.r	[2.gg	[2.g	[2.gg	4G	4G	[2.gg	[2.g
.	4f	4F	4F	.	.	.	.	4F	4F	.	.
.	4e-	4E-	4E-	.	.	.	.	4E-	4E-	.	.
=173	=173	=173	=173	=173	=173	=173	=173	=173	=173	=173	=173
2.r	4d	4D	4D	2.r	2.gg_	2.g_	2.gg_	4D	4D	2.gg]	2.g]
.	4c	4C	4C	.	.	.	.	4C	4C	.	.
.	4B-	4BB-	4BB-	.	.	.	.	4BB-	4BB-	.	.
=174	=174	=174	=174	=174	=174	=174	=174	=174	=174	=174	=174
2.r	2.c	2AA	2AA	2.r	4gg]	4g]	4gg]	2AA	2AA	4gg	4g
.	.	.	.	.	4ff#	4f#	4ff#	.	.	4ff#	4f#
.	.	4C	4C	.	4dd	4d	4dd	4C	4C	4dd	4d
=175	=175	=175	=175	=175	=175	=175	=175	=175	=175	=175	=175
2.r	2.d	2BB-	2BB-	2.r	4aa	4a	4aa	2BB-	2BB-	4aa	4a
.	.	.	.	.	4gg	4g	4gg	.	.	4gg	4g
.	.	4D	4D	.	4dd	4d	4dd	4D	4D	4dd	4d
=176	=176	=176	=176	=176	=176	=176	=176	=176	=176	=176	=176
2.r	2.e-	2C	2C	2.r	4bb-	4b-	4bb-	2C	2C	4bb-	4b-
.	.	.	.	.	4aa	4a	4aa	.	.	4aa	4a
.	.	4E-	4E-	.	[4ccc	4cc	4ccc	4E-	4E-	4ccc	4cc
=177	=177	=177	=177	=177	=177	=177	=177	=177	=177	=177	=177
2.r	4cc	4FF#	4FF#	2.r	4ccc]	4ee-	4eee-	4FF#	4FF#	4eee-	4ee-
.	4b-	4AA	4AA	.	4bb-	4dd	4ddd	4AA	4AA	4ddd	4dd
.	4a	4D	4D	.	4aa	4cc	4ccc	4D	4D	4ccc	4cc
=178	=178	=178	=178	=178	=178	=178	=178	=178	=178	=178	=178
2.r	4dd	4G	4G	2.r	4bb-	4b-	4bb-	4G	4G	4bb-	4b-
.	4cc	4A	4A	.	4ff#	4ff#	4ff#	4A	4A	4ff#	4ff#
.	4b-	4B-	4B-	.	4gg	4gg	4gg	4B-	4B-	4gg	4gg
=179	=179	=179	=179	=179	=179	=179	=179	=179	=179	=179	=179
2.r	4cc	4c	4c	2.r	4cc	4cc	4cc	4c	4c	4cc	4cc
.	4a	4A	4A	.	4a	4a	4a	4A	4A	4a	4a
.	4dd	4d	4d	.	4dd	4dd	4dd	4d	4d	4dd	4dd
=180	=180	=180	=180	=180	=180	=180	=180	=180	=180	=180	=180
2.r	4g	4G	4G	2.r	4gg	4b-	4bb-	4G	4G	8gg	4b- 4gg
.	.	.	.	.	.	.	.	.	.	8bb-	.
.	2ee-	2G	2G	.	2ff#	2ee-	2ccc	2G	2G	8aa	2ff# 2cc
.	.	.	.	.	.	.	.	.	.	8ccc	.
.	.	.	.	.	.	.	.	.	.	8ff#	.
.	.	.	.	.	.	.	.	.	.	8aa	.
=181	=181	=181	=181	=181	=181	=181	=181	=181	=181	=181	=181
2.r	4dd	4G	4G	2.r	4gg	4dd	4bb-	4G	4G	8gg	4gg 4b-
.	.	.	.	.	.	.	.	.	.	8bb-	.
.	2ee-	2G	2G	.	2ff#	2ee-	2ccc	2G	2G	8aa	2ff# 2cc
.	.	.	.	.	.	.	.	.	.	8ccc	.
.	.	.	.	.	.	.	.	.	.	8ff#	.
.	.	.	.	.	.	.	.	.	.	8aa	.
=182	=182	=182	=182	=182	=182	=182	=182	=182	=182	=182	=182
2.r	4dd	4G	4G	2.r	4gg	2.dd	4bb	4G	4G	8gg	4b 4gg
.	.	.	.	.	.	.	.	.	.	8bb	.
.	2g	2B	2B	.	2ff	.	4ddd	2B	2B	8ddd	2ff 2dd
.	.	.	.	.	.	.	.	.	.	8bb	.
.	.	.	.	.	.	.	4ff	.	.	8bb	.
.	.	.	.	.	.	.	.	.	.	8ff	.
=183	=183	=183	=183	=183	=183	=183	=183	=183	=183	=183	=183
2.r	8c	8c	8c	2.r	8ee-	8ee-	8ee-	8c	8c	4ee- 4g	4ee-
.	8e-	8e-	8e-	.	8gg	8gg	8gg	8e-	8e-	.	.
.	8d	8d	8d	.	8ff	8ff	8ff	8d	8d	2ff 2g	2b 2d
.	8f	8f	8f	.	8aa-	8aa-	8aa-	8f	8f	.	.
.	8B	8B	8B	.	8dd	8dd	8dd	8B	8B	.	.
.	8d	8d	8d	.	8ff	8ff	8ff	8d	8d	.	.
=184	=184	=184	=184	=184	=184	=184	=184	=184	=184	=184	=184
2.r	8c	8c	8c	2.r	8ee-	8ee-	8ee-	8c	8c	4ee- 4g	4cc 4g
.	8e-	8e-	8e-	.	8gg	8gg	8gg	8e-	8e-	.	.
.	8d	8d	8d	.	8ff	8ff	8ff	8d	8d	2ff 2g	2f 2b
.	8f	8f	8f	.	8aa-	8aa-	8aa-	8f	8f	.	.
.	8B	8B	8B	.	8dd	8dd	8dd	8B	8B	.	.
.	8d	8d	8d	.	8ff	8ff	8ff	8d	8d	.	.
=185	=185	=185	=185	=185	=185	=185	=185	=185	=185	=185	=185
2.r	8c	8c	8c	2.r	8ee-	8ee-	8ee-	8c	8c	4ee-	4cc 4e-
.	8e-	8e-	8e-	.	8gg	8gg	8gg	8e-	8e-	.	.
.	8A	8A	8A	.	8cc	8cc	8cc	8A	8A	4ccc	4ee-
.	8c	8c	8c	.	8ee-	8ee-	8ee-	8c	8c	.	.
.	8F	8F	8F	.	8a	8a	8a	8F	8F	4ee-	4cc
.	8A	8A	8A	.	8cc	8cc	8cc	8A	8A	.	.
=186	=186	=186	=186	=186	=186	=186	=186	=186	=186	=186	=186
2.r	8B-	8B-	8B-	2.r	8dd	8dd	8dd	8B-	8B-	4f 4dd	4b-
.	8d	8d	8d	.	8ff	8ff	8ff	8d	8d	.	.
.	8c	8c	8c	.	8ee-	8ee-	8ee-	8c	8c	2ee- 2f	2a 2e-
.	8e-	8e-	8e-	.	8gg	8gg	8gg	8e-	8e-	.	.
.	8A	8A	8A	.	8cc	8cc	8cc	8A	8A	.	.
.	8c	8c	8c	.	8ee-	8ee-	8ee-	8c	8c	.	.
=187	=187	=187	=187	=187	=187	=187	=187	=187	=187	=187	=187
2.r	8B-	8B-	8B-	2.r	8dd	8dd	8dd	8B-	8B-	4dd 4f	4b- 4d
.	8d	8d	8d	.	8ff	8ff	8ff	8d	8d	.	.
.	8c	8c	8c	.	8ee-	8ee-	8ee-	8c	8c	2ee- 2f	2e- 2a
.	8e-	8e-	8e-	.	8gg	8gg	8gg	8e-	8e-	.	.
.	8A	8A	8A	.	8cc	8cc	8cc	8A	8A	.	.
.	8c	8c	8c	.	8ee-	8ee-	8ee-	8c	8c	.	.
=188	=188	=188	=188	=188	=188	=188	=188	=188	=188	=188	=188
2.r	8B-	8B-	8B-	2.r	8dd	8dd	8dd	8B-	8B-	4dd	4b-
.	8d	8d	8d	.	8ff	8ff	8ff	8d	8d	.	.
.	8G	8G	8G	.	8b-	8b-	8b-	8G	8G	4bb-	4dd
.	8B-	8B-	8B-	.	8dd	8dd	8dd	8B-	8B-	.	.
.	8E-	8E-	8E-	.	8g	8g	8g	8E-	8E-	4dd	4b-
.	8G	8G	8G	.	8b-	8b-	8b-	8G	8G	.	.
=189	=189	=189	=189	=189	=189	=189	=189	=189	=189	=189	=189
2.r	8A	8A	8A	2.r	8cc	8cc	8cc	8A	8A	4cc	4a
.	8c	8c	8c	.	8ee-	8ee-	8ee-	8c	8c	.	.
.	8F#	8F#	8F#	.	8a	8a	8a	8F#	8F#	4aa	4cc
.	8A	8A	8A	.	8cc	8cc	8cc	8A	8A	.	.
.	8D	8D	8D	.	8f#	8f#	8f#	8D	8D	4cc	4a
.	8F#	8F#	8F#	.	8a	8a	8a	8F#	8F#	.	.
=190	=190	=190	=190	=190	=190	=190	=190	=190	=190	=190	=190
2.r	8G	8G	8G	2.r	4b-	4b-	4b-	8G	8G	4b-	4g
.	8B-	8B-	8B-	.	.	.	.	8B-	8B-	.	.
.	8E-	8E-	8E-	.	4g	4g	4g	8E-	8E-	4gg	4gg
.	8G	8G	8G	.	.	.	.	8G	8G	.	.
.	8E-	8E-	8E-	.	4cc#	4cc#	4cc#	8E-	8E-	4cc#	4cc#
.	8G	8G	8G	.	.	.	.	8G	8G	.	.
=191	=191	=191	=191	=191	=191	=191	=191	=191	=191	=191	=191
4ee	8D	8D	8D	4e	4dd	4dd	4dd	4D	4D	[4dd	4dd
.	8d	8d	8d	.	.	.	.	.	.	.	.
4ee	8D	8D	8D	4e	4dd	4dd	4dd	4D	4D	8dd]	4r
.	8d	8d	8d	.	.	.	.	.	.	16ee	.
.	.	.	.	.	.	.	.	.	.	16ff#	.
4r	8D	8D	8D	4r	4r	4r	4r	4r	4r	16gg	16gg
.	.	.	.	.	.	.	.	.	.	16aa	16ff#
.	8d	8d	8d	.	.	.	.	.	.	16bb-	16gg
.	.	.	.	.	.	.	.	.	.	16ccc	16aa
=192	=192	=192	=192	=192	=192	=192	=192	=192	=192	=192	=192
2.r	8D	8D	8D	2.r	2.r	2.r	2.r	2.r	2.r	4ddd	4bb-
.	8d	8d	8d	.	.	.	.	.	.	.	.
.	8D	8D	8D	.	.	.	.	.	.	4ccc	4aa
.	8d	8d	8d	.	.	.	.	.	.	.	.
.	8D	8D	8D	.	.	.	.	.	.	4bb-	4gg
.	8d	8d	8d	.	.	.	.	.	.	.	.
=193	=193	=193	=193	=193	=193	=193	=193	=193	=193	=193	=193
4ee	8D	8D	8D	4e	4dd	4dd	4dd	4D	4D	4aa	4ff#
.	8d	8d	8d	.	.	.	.	.	.	.	.
4ee	8D	8D	8D	4e	4dd	4dd	4dd	4D	4D	16r	4r
.	.	.	.	.	.	.	.	.	.	16dd	.
.	8d	8d	8d	.	.	.	.	.	.	16ee	.
.	.	.	.	.	.	.	.	.	.	16ff#	.
4r	8D	8D	8D	4r	4r	4r	4r	4r	4r	16gg	16gg
.	.	.	.	.	.	.	.	.	.	16aa	16ff#
.	8d	8d	8d	.	.	.	.	.	.	16bb-	16gg
.	.	.	.	.	.	.	.	.	.	16ccc	16aa
=194	=194	=194	=194	=194	=194	=194	=194	=194	=194	=194	=194
2.r	8D	8D	8D	2.r	2.r	2.r	2.r	2.r	2.r	4ddd	4bb-
.	8d	8d	8d	.	.	.	.	.	.	.	.
.	8D	8D	8D	.	.	.	.	.	.	4ccc	4aa
.	8d	8d	8d	.	.	.	.	.	.	.	.
.	8D	8D	8D	.	.	.	.	.	.	4bb-	4gg
.	8d	8d	8d	.	.	.	.	.	.	.	.
=195	=195	=195	=195	=195	=195	=195	=195	=195	=195	=195	=195
4ee	8D	8D	8D	4e	4dd	4dd	4ddd	4D	4D	4aa	4ff#
.	8d	8d	8d	.	.	.	.	.	.	.	.
4ee	8D	8D	8D	4e	4dd	4dd	4ddd	4D	4D	16r	4r
.	.	.	.	.	.	.	.	.	.	16dd	.
.	8d	8d	8d	.	.	.	.	.	.	16ee	.
.	.	.	.	.	.	.	.	.	.	16ff#	.
4r	8D	8D	8D	4r	4r	4r	4r	4r	4r	16gg	16gg
.	.	.	.	.	.	.	.	.	.	16aa	16ff#
.	8d	8d	8d	.	.	.	.	.	.	16bb-	16gg
.	.	.	.	.	.	.	.	.	.	16ccc	16aa
=196	=196	=196	=196	=196	=196	=196	=196	=196	=196	=196	=196
2.r	8D	8D	8D	2.r	2.r	2.r	2.r	2.r	4D	4ddd	4bb-
.	8d	8d	8d	.	.	.	.	.	.	.	.
.	8D	8D	8D	.	.	.	.	.	4D	4ccc	4aa
.	8d	8d	8d	.	.	.	.	.	.	.	.
.	8D	8D	8D	.	.	.	.	.	4D	4bb-	4gg
.	8d	8d	8d	.	.	.	.	.	.	.	.
=197	=197	=197	=197	=197	=197	=197	=197	=197	=197	=197	=197
4ee	4D	4D	4D	4e	4dd	4dd	4ddd	4D	2.r	4aa	4ff#
4ee	4D	4D	4D	4e	4dd	4dd	4ddd	4D	.	4dd	4d
4ee	4D	4D	4D	4e	4dd	4dd	4ddd	4D	.	4dd	4d
=198	=198	=198	=198	=198	=198	=198	=198	=198	=198	=198	=198
4ee	4d	[2.D	[2.D	4e	4dd	4dd	4ddd	4d	2.r	[2.dd	4d
2r	4c#	.	.	2r	2r	2r	2r	4c#	.	.	4e
.	4c	.	.	.	.	.	.	4c	.	.	4f#
=199	=199	=199	=199	=199	=199	=199	=199	=199	=199	=199	=199
2.r	4B-	2.D_	2.D_	2.r	2.r	2.r	2.r	4B-	2.r	2dd]	4g
.	4A	.	.	.	.	.	.	4A	.	.	4a
.	[4G	.	.	.	.	.	.	[4G	.	4cc#	[4b-
=200	=200	=200	=200	=200	=200	=200	=200	=200	=200	=200	=200
2.r	4G]	2.D_	2.D_	2.r	2.r	2.r	2.r	4G]	2.r	[2.dd	4b-]
.	4F#	.	.	.	.	.	.	4F#	.	.	4a
.	4A	.	.	.	.	.	.	4A	.	.	4f#
=201	=201	=201	=201	=201	=201	=201	=201	=201	=201	=201	=201
2.r	4D	4D]	4D]	2.r	2.r	2.r	2.r	4D	2.r	4dd]	4d
.	2r	2r	2r	.	.	.	.	2r	.	4aa	2r
.	.	.	.	.	.	.	.	.	.	4ff#	.
=202	=202	=202	=202	=202	=202	=202	=202	=202	=202	=202	=202
2.r	4d	[2.D	[2.D	2.r	2.r	2.r	2.r	4d	2.r	[2.dd	4d
.	4c#	.	.	.	.	.	.	4c#	.	.	4e
.	4c	.	.	.	.	.	.	4c	.	.	4f#
=203	=203	=203	=203	=203	=203	=203	=203	=203	=203	=203	=203
2.r	4B-	2.D_	2.D_	2.r	2.r	2.r	2.r	4B-	2.r	2dd]	4g
.	4A	.	.	.	.	.	.	4A	.	.	4a
.	[4G	.	.	.	.	.	.	[4G	.	4cc#	[4b-
=204	=204	=204	=204	=204	=204	=204	=204	=204	=204	=204	=204
2.r	4G]	2.D_	2.D_	2.r	2.r	2.r	2.r	4G]	2.r	[2.dd	4b-]
.	4F#	.	.	.	.	.	.	4F#	.	.	4a
.	4A	.	.	.	.	.	.	4A	.	.	4f#
=205	=205	=205	=205	=205	=205	=205	=205	=205	=205	=205	=205
2.r	4D	4D]	4D]	2.r	2.r	2.r	2.r	4D	2.r	4dd]	4d
.	2r	2r	2r	.	.	.	.	2r	.	4aa	2r
.	.	.	.	.	.	.	.	.	.	4ff#	.
=206	=206	=206	=206	=206	=206	=206	=206	=206	=206	=206	=206
2.r	4d	4D	4D	2.r	2.r	2.r	2.r	2.r	2.r	4dd	4f#
.	2r	2r	2r	.	.	.	.	.	.	4aa	2r
.	.	.	.	.	.	.	.	.	.	4ff#	.
=207	=207	=207	=207	=207	=207	=207	=207	=207	=207	=207	=207
2.r	4d	4D	4D	2.r	2.r	2.r	2.r	2.r	2.r	4dd	4f#
.	2r	2r	2r	.	.	.	.	.	.	4aa	2r
.	.	.	.	.	.	.	.	.	.	4ff#	.
=208	=208	=208	=208	=208	=208	=208	=208	=208	=208	=208	=208
2.r	2.r	2.r	2.r	2.r	2.r	2.r	2.r	2.r	2.r	4dd	2.r
.	.	.	.	.	.	.	.	.	.	4aa	.
.	.	.	.	.	.	.	.	.	.	4ff#	.
=209	=209	=209	=209	=209	=209	=209	=209	=209	=209	=209	=209
2.r	2.r	2.r	2.r	2.r	2.r	2.r	2.r	2.r	2.r	4dd	2.r
.	.	.	.	.	.	.	.	.	.	4aa	.
.	.	.	.	.	.	.	.	.	.	4ff#	.
=210	=210	=210	=210	=210	=210	=210	=210	=210	=210	=210	=210
2.r	2.r	2.r	2.r	2.r	2.r	2.r	2.r	2.r	2.r	4dd	2.r
.	.	.	.	.	.	.	.	.	.	4aa	.
.	.	.	.	.	.	.	.	.	.	4ff#	.
=211	=211	=211	=211	=211	=211	=211	=211	=211	=211	=211	=211
2.r	2.r	2.r	2.r	2.r	2.r	2.r	2.r	2.r	2.r	4dd	2.r
.	.	.	.	.	.	.	.	.	.	4cc#	.
.	.	.	.	.	.	.	.	.	.	4cc	.
=212	=212	=212	=212	=212	=212	=212	=212	=212	=212	=212	=212
2.r	2.r	8B-	8B-	2.c	2.r	2.r	2.r	2.r	2.r	[2.b-	2.r
.	.	8r	8r	.	.	.	.	.	.	.	.
.	.	8A	8A	.	.	.	.	.	.	.	.
.	.	8r	8r	.	.	.	.	.	.	.	.
.	.	8G	8G	.	.	.	.	.	.	.	.
.	.	8r	8r	.	.	.	.	.	.	.	.
=213	=213	=213	=213	=213	=213	=213	=213	=213	=213	=213	=213
2.r	2.r	8F	8F	2.e	2.r	2.r	2.r	2.r	2.r	2.b-_	2.r
.	.	8r	8r	.	.	.	.	.	.	.	.
.	.	8E-	8E-	.	.	.	.	.	.	.	.
.	.	8r	8r	.	.	.	.	.	.	.	.
.	.	8D	8D	.	.	.	.	.	.	.	.
.	.	8r	8r	.	.	.	.	.	.	.	.
=214	=214	=214	=214	=214	=214	=214	=214	=214	=214	=214	=214
2.r	2.r	4C	4C	4g	2.r	2.r	2.r	2.r	2.r	4b-]	[2.ee-
.	.	2r	2r	2r	.	.	.	.	.	4a	.
.	.	.	.	.	.	.	.	.	.	4f	.
=215	=215	=215	=215	=215	=215	=215	=215	=215	=215	=215	=215
2.r	2.r	2.r	2.r	2.r	4r	4r	2.r	2.r	2.r	4e-	4ee-]
.	.	.	.	.	4ee-	4cc	.	.	.	2r	4cc
.	.	.	.	.	4ee-	4cc	.	.	.	.	4a
=216	=216	=216	=216	=216	=216	=216	=216	=216	=216	=216	=216
2.r	4F	8e-	8e-	[2.G	4ee-	4cc	2.r	2.r	2.r	[2.cc	4f
.	.	8r	8r	.	.	.	.	.	.	.	.
.	2r	8c	8c	.	2r	2r	.	.	.	.	2r
.	.	8r	8r	.	.	.	.	.	.	.	.
.	.	8A	8A	.	.	.	.	.	.	.	.
.	.	8r	8r	.	.	.	.	.	.	.	.
=217	=217	=217	=217	=217	=217	=217	=217	=217	=217	=217	=217
2.r	4A	8F	8F	2.G]	2.r	2.r	2.r	2.r	2.r	2.cc_	2.r
.	.	8r	8r	.	.	.	.	.	.	.	.
.	2r	8E	8E	.	.	.	.	.	.	.	.
.	.	8r	8r	.	.	.	.	.	.	.	.
.	.	8E-	8E-	.	.	.	.	.	.	.	.
.	.	8r	8r	.	.	.	.	.	.	.	.
=218	=218	=218	=218	=218	=218	=218	=218	=218	=218	=218	=218
2.r	4B-	4D	4D	4c	2.r	2.r	2.r	2.r	2.r	4cc]	[2.ff
.	2r	2r	2r	2r	.	.	.	.	.	4dd	.
.	.	.	.	.	.	.	.	.	.	4a	.
=219	=219	=219	=219	=219	=219	=219	=219	=219	=219	=219	=219
2.r	2.r	2.r	2.r	2.r	4r	4r	2.r	2.r	2.r	4b-	4ff]
.	.	.	.	.	4dd	4b-	.	.	.	2r	4dd
.	.	.	.	.	4dd	4b-	.	.	.	.	4b-
=220	=220	=220	=220	=220	=220	=220	=220	=220	=220	=220	=220
2.r	4B-	8B-	8B-	2.r	4dd	4b-	2.ff	2.r	2.r	2.dd	2.f
.	.	8r	8r	.	.	.	.	.	.	.	.
.	2r	8A	8A	.	2r	2r	.	.	.	.	.
.	.	8r	8r	.	.	.	.	.	.	.	.
.	.	8A-	8A-	.	.	.	.	.	.	.	.
.	.	8r	8r	.	.	.	.	.	.	.	.
=221	=221	=221	=221	=221	=221	=221	=221	=221	=221	=221	=221
2.r	4E-	8G	8G	2.r	2.r	2.r	2gg	2.r	2.r	2ee-	2g
.	.	8r	8r	.	.	.	.	.	.	.	.
.	2r	8F	8F	.	.	.	.	.	.	.	.
.	.	8r	8r	.	.	.	.	.	.	.	.
.	.	8E	8E	.	.	.	16aa	.	.	16ff	16a
.	.	.	.	.	.	.	8.bb-	.	.	8.gg	8.b-
.	.	8r	8r	.	.	.	.	.	.	.	.
=222	=222	=222	=222	=222	=222	=222	=222	=222	=222	=222	=222
2.r	4F	2.F	2.F	2.r	2.r	2.r	2dd	2.r	2.r	2b-	2d
.	2r	.	.	.	.	.	.	.	.	.	.
.	.	.	.	.	.	.	8ee-	.	.	8cc	8e-
.	.	.	.	.	.	.	8cc	.	.	8a	8c
=223	=223	=223	=223	=223	=223	=223	=223	=223	=223	=223	=223
[2.cc	8B-	8B-	8B-	[2.e	[2.ff	[2.dd	4b-	8BB-	8BB-	4b-	8B-
.	8B-	8B-	8B-	.	.	.	.	8B-	8B-	.	8f 8dd
.	8B-	8B-	8B-	.	.	.	2r	8BB-	8BB-	16r	8dd 8f
.	.	.	.	.	.	.	.	.	.	16b-	.
.	8B-	8B-	8B-	.	.	.	.	8B-	8B-	16cc	8dd 8f
.	.	.	.	.	.	.	.	.	.	16dd	.
.	8B-	8B-	8B-	.	.	.	.	8BB-	8BB-	16ee-	8dd 8f
.	.	.	.	.	.	.	.	.	.	16ff	.
.	8B-	8B-	8B-	.	.	.	.	8B-	8B-	16gg	8dd 8f
.	.	.	.	.	.	.	.	.	.	16aa	.
=224	=224	=224	=224	=224	=224	=224	=224	=224	=224	=224	=224
4cc]	8B-	8B-	8B-	4e]	2.ff_	2.dd_	4bb-	8BB-	8BB-	4bb-	8dd 8f
.	8B-	8B-	8B-	.	.	.	.	8B-	8B-	.	8f 8dd
4cc	8B-	8B-	8B-	4e	.	.	4ff	8BB-	8BB-	4ff	8dd 8f
.	8B-	8B-	8B-	.	.	.	.	8B-	8B-	.	8dd 8f
[4cc	8B-	8B-	8B-	[4e	.	.	4ddd	8BB-	8BB-	4ddd	8dd 8f
.	8B-	8B-	8B-	.	.	.	.	8B-	8B-	.	8dd 8f
=225	=225	=225	=225	=225	=225	=225	=225	=225	=225	=225	=225
2.cc]	8B-	8B-	8B-	2.e]	2.ff_	2.dd_	4bb-	8BB-	8BB-	4bb-	8dd 8f
.	8B-	8B-	8B-	.	.	.	.	8B-	8B-	.	8dd 8f
.	8B-	8B-	8B-	.	.	.	4r	8BB-	8BB-	4r	8dd 8f
.	8B-	8B-	8B-	.	.	.	.	8B-	8B-	.	8dd 8f
.	8B-	8B-	8B-	.	.	.	16bb-	8BB-	8BB-	16bb-	8dd 8f
.	.	.	.	.	.	.	16aa	.	.	16aa	.
.	8B-	8B-	8B-	.	.	.	16bb-	8B-	8B-	16bb-	8dd 8f
.	.	.	.	.	.	.	16ccc	.	.	16ccc	.
=226	=226	=226	=226	=226	=226	=226	=226	=226	=226	=226	=226
[2.cc	8B-	8A-	8A-	[2.c	2.ff]	2.dd]	4ddd	4BB-	4BB-	4ddd	8dd 8f
.	8B-	8A-	8A-	.	.	.	.	.	.	.	8dd 8f
.	8B-	8A-	8A-	.	.	.	4bb-	4A-	4A-	4bb-	8dd 8f
.	8B-	8A-	8A-	.	.	.	.	.	.	.	8dd 8f
.	8B-	8A-	8A-	.	.	.	4ddd	4A-	4A-	4ddd	8dd 8f
.	8B-	8A-	8A-	.	.	.	.	.	.	.	8dd 8f
=227	=227	=227	=227	=227	=227	=227	=227	=227	=227	=227	=227
2.cc_	8B-	8G	8G	2.c_	2.ee-	2.ee-	2.eee-	2.G	2.G	2.eee-	8ee-
.	8B-	8G	8G	.	.	.	.	.	.	.	8b-
.	8B-	8G	8G	.	.	.	.	.	.	.	8b-
.	8B-	8G	8G	.	.	.	.	.	.	.	8b-
.	8B-	8G	8G	.	.	.	.	.	.	.	8b-
.	8B-	8G	8G	.	.	.	.	.	.	.	8b-
=228	=228	=228	=228	=228	=228	=228	=228	=228	=228	=228	=228
2.cc_	8B-	8F	8F	2.c_	2.dd	2.b-	2.ddd	2.F	2.F	2.ddd	8b-
.	8B-	8F	8F	.	.	.	.	.	.	.	8b-
.	8B-	8F	8F	.	.	.	.	.	.	.	8b-
.	8B-	8F	8F	.	.	.	.	.	.	.	8b-
.	8B-	8F	8F	.	.	.	.	.	.	.	8b-
.	8B-	8F	8F	.	.	.	.	.	.	.	8b-
=229	=229	=229	=229	=229	=229	=229	=229	=229	=229	=229	=229
2.cc]	8e	8E	8E	2.c]	2.cc	2.g	2.ccc	2.E	2.E	2.ccc	8gg 8cc
.	8e	8E	8E	.	.	.	.	.	.	.	8gg 8cc
.	8e	8E	8E	.	.	.	.	.	.	.	8gg 8cc
.	8e	8E	8E	.	.	.	.	.	.	.	8gg 8cc
.	8e	8E	8E	.	.	.	.	.	.	.	8cc 8gg
.	8e	8E	8E	.	.	.	.	.	.	.	8gg 8cc
=230	=230	=230	=230	=230	=230	=230	=230	=230	=230	=230	=230
4g	8F	8FF	8FF	4G	4ff	4f	4ff	8FF	8FF	4aa	4ff
.	8f	8F	8F	.	.	.	.	8F	8F	.	.
4g	8F	8FF	8FF	4G	4ff	4f	4ff	8FF	8FF	16r	16r
.	.	.	.	.	.	.	.	.	.	16ff	16f
.	8f	8F	8F	.	.	.	.	8F	8F	16gg	16g
.	.	.	.	.	.	.	.	.	.	16aa	16a
4r	8F	8FF	8FF	4r	4r	4r	4r	8FF	8FF	16bb-	16b-
.	.	.	.	.	.	.	.	.	.	16ccc	16a
.	8f	8F	8F	.	.	.	.	8F	8F	16ddd	16b-
.	.	.	.	.	.	.	.	.	.	16eee-	16cc
=231	=231	=231	=231	=231	=231	=231	=231	=231	=231	=231	=231
2.r	8F	8FF	8FF	2.r	2.r	2.r	2.r	8FF	8FF	4fff	4dd
.	8f	8F	8F	.	.	.	.	8F	8F	.	.
.	8F	8FF	8FF	.	.	.	.	8FF	8FF	4eee-	4cc
.	8f	8F	8F	.	.	.	.	8F	8F	.	.
.	8F	8FF	8FF	.	.	.	.	8FF	8FF	4ddd	4b-
.	8f	8F	8F	.	.	.	.	8F	8F	.	.
=232	=232	=232	=232	=232	=232	=232	=232	=232	=232	=232	=232
4g	8F	8FF	8FF	4G	4ff	4f	4ff	8FF	8FF	4ccc	4a 4ff 4f
.	8f	8F	8F	.	.	.	.	8F	8F	.	.
4g	8F	8FF	8FF	4G	4ff	4f	4ff	8FF	8FF	16r	16r
.	.	.	.	.	.	.	.	.	.	16ff	16f
.	8f	8F	8F	.	.	.	.	8F	8F	16gg	16g
.	.	.	.	.	.	.	.	.	.	16aa	16a
4r	8F	8FF	8FF	4r	4r	4r	4r	8FF	8FF	16bb-	16b-
.	.	.	.	.	.	.	.	.	.	16ccc	16a
.	8f	8F	8F	.	.	.	.	8F	8F	16ddd	16b-
.	.	.	.	.	.	.	.	.	.	16eee-	16cc
=233	=233	=233	=233	=233	=233	=233	=233	=233	=233	=233	=233
2.r	8F	8FF	8FF	2.r	2.r	2.r	2.r	8FF	8FF	4fff	4dd
.	8f	8F	8F	.	.	.	.	8F	8F	.	.
.	8F	8FF	8FF	.	.	.	.	8FF	8FF	4eee-	4cc
.	8f	8F	8F	.	.	.	.	8F	8F	.	.
.	8F	8FF	8FF	.	.	.	.	8FF	8FF	4ddd	4b-
.	8f	8F	8F	.	.	.	.	8F	8F	.	.
=234	=234	=234	=234	=234	=234	=234	=234	=234	=234	=234	=234
4g	8F	8FF	8FF	4G	4ff	4f	4ff	8FF	8FF	4ccc	4f 4ff 4a
.	8f	8F	8F	.	.	.	.	8F	8F	.	.
4g	8F	8FF	8FF	4G	4ff	4f	4ff	8FF	8FF	16r	16r
.	.	.	.	.	.	.	.	.	.	16ff	16ff
.	8f	8F	8F	.	.	.	.	8F	8F	16gg	16gg
.	.	.	.	.	.	.	.	.	.	16aa	16aa
4r	8F	8FF	8FF	4r	4r	4r	4r	8FF	8FF	16bb-	16bb-
.	.	.	.	.	.	.	.	.	.	16ccc	16aa
.	8f	8F	8F	.	.	.	.	8F	8F	16ddd	16bb-
.	.	.	.	.	.	.	.	.	.	16eee-	16ccc
=235	=235	=235	=235	=235	=235	=235	=235	=235	=235	=235	=235
2.r	8F	8FF	8FF	2.r	2.r	2.r	2.r	8FF	8FF	8fff	8ddd
.	8f	8F	8F	.	.	.	.	8F	8F	8r	8r
.	8F	8FF	8FF	.	.	.	.	8FF	8FF	8eee-	8ccc
.	8f	8F	8F	.	.	.	.	8F	8F	8r	8r
.	8F	8FF	8FF	.	.	.	.	8FF	8FF	8ddd	8bb-
.	8f	8F	8F	.	.	.	.	8F	8F	8r	8r
=236	=236	=236	=236	=236	=236	=236	=236	=236	=236	=236	=236
2.r	4F	4FF	4FF	2.r	2.r	2.r	2.r	4FF	4FF	8ccc	8aa
.	.	.	.	.	.	.	.	.	.	8r	8r
.	2r	2r	2r	.	.	.	.	2r	2r	8bb-	8gg
.	.	.	.	.	.	.	.	.	.	8r	8r
.	.	.	.	.	.	.	.	.	.	8aa	8ff
.	.	.	.	.	.	.	.	.	.	8r	8r
=237	=237	=237	=237	=237	=237	=237	=237	=237	=237	=237	=237
2.r	2.r	2.r	2.r	2.r	2.r	2.r	2.r	2.r	2.r	8gg	8ee-
.	.	.	.	.	.	.	.	.	.	8r	8r
.	.	.	.	.	.	.	.	.	.	8ff	8dd
.	.	.	.	.	.	.	.	.	.	8r	8r
.	.	.	.	.	.	.	.	.	.	8ee-	8cc
.	.	.	.	.	.	.	.	.	.	8r	8r
=238	=238	=238	=238	=238	=238	=238	=238	=238	=238	=238	=238
2.r	4B-	4BB-	4BB-	2.r	[2.bb-	2.r	2.r	4BB-	4BB-	8dd	8b-
.	.	.	.	.	.	.	.	.	.	8r	8r
.	2r	2r	2r	.	.	.	.	2r	2r	8cc	8a
.	.	.	.	.	.	.	.	.	.	8r	8r
.	.	.	.	.	.	.	.	.	.	8b-	8g
.	.	.	.	.	.	.	.	.	.	8r	8r
=239	=239	=239	=239	=239	=239	=239	=239	=239	=239	=239	=239
2.r	2.r	2.r	2.r	2.r	2.bb-_	2.r	2.r	2.r	2.r	8a	8f
.	.	.	.	.	.	.	.	.	.	8r	8r
.	.	.	.	.	.	.	.	.	.	8g	8e-
.	.	.	.	.	.	.	.	.	.	8r	8r
.	.	.	.	.	.	.	.	.	.	8f	8d
.	.	.	.	.	.	.	.	.	.	8r	8r
=240	=240	=240	=240	=240	=240	=240	=240	=240	=240	=240	=240
2.r	4f	4F	4F	2.r	4bb-]	2.r	2.r	4F	4F	4e-	4c
.	2r	2r	2r	.	4aa	.	.	2r	2r	2r	2r
.	.	.	.	.	4ff	.	.	.	.	.	.
=241	=241	=241	=241	=241	=241	=241	=241	=241	=241	=241	=241
2.r	2.r	2.r	2.r	2.r	4ee-	2.r	2.r	2.r	2.r	4r	4r
.	.	.	.	.	2r	.	.	.	.	8ee-	8cc
.	.	.	.	.	.	.	.	.	.	8r	8r
.	.	.	.	.	.	.	.	.	.	8ee-	8cc
.	.	.	.	.	.	.	.	.	.	8r	8r
=242	=242	=242	=242	=242	=242	=242	=242	=242	=242	=242	=242
2.r	4f	4F	4F	2.r	[2.ccc	2.r	2.r	4F	4F	8ee-	8cc
.	.	.	.	.	.	.	.	.	.	8r	8r
.	2r	2r	2r	.	.	.	.	2r	2r	8dd	8b-
.	.	.	.	.	.	.	.	.	.	8r	8r
.	.	.	.	.	.	.	.	.	.	8cc	8a
.	.	.	.	.	.	.	.	.	.	8r	8r
=243	=243	=243	=243	=243	=243	=243	=243	=243	=243	=243	=243
2.r	2.r	2.r	2.r	2.r	2.ccc_	2.r	2.r	2.r	2.r	8b-	8g
.	.	.	.	.	.	.	.	.	.	8r	8r
.	.	.	.	.	.	.	.	.	.	8a	8f
.	.	.	.	.	.	.	.	.	.	8r	8r
.	.	.	.	.	.	.	.	.	.	8g	8e-
.	.	.	.	.	.	.	.	.	.	8r	8r
=244	=244	=244	=244	=244	=244	=244	=244	=244	=244	=244	=244
2.r	4B-	4BB-	4BB-	2.r	4ccc]	2.r	2.r	4BB-	4BB-	4f	4d
.	2r	2r	2r	.	4ddd	.	.	2r	2r	2r	2r
.	.	.	.	.	4aa	.	.	.	.	.	.
=245	=245	=245	=245	=245	=245	=245	=245	=245	=245	=245	=245
2.r	2.r	2.r	2.r	2.r	4bb-	2.r	2.r	2.r	2.r	4r	4r
.	.	.	.	.	2r	.	.	.	.	4ff	4dd
.	.	.	.	.	.	.	.	.	.	4ff	4dd
=246	=246	=246	=246	=246	=246	=246	=246	=246	=246	=246	=246
2.r	2.r	2.r	2.r	2.r	[2.ff	2.r	2.r	2.r	2.r	4dd	4b-
.	.	.	.	.	.	.	.	.	.	4cc#	4a
.	.	.	.	.	.	.	.	.	.	4cc	4a-
=247	=247	=247	=247	=247	=247	=247	=247	=247	=247	=247	=247
2.r	2.r	2.r	2.r	2.r	4ff]	2.r	2.r	2.r	2.r	2.b	2.g
.	.	.	.	.	4gg	.	.	.	.	.	.
.	.	.	.	.	4ff	.	.	.	.	.	.
=248	=248	=248	=248	=248	=248	=248	=248	=248	=248	=248	=248
2.r	2.r	2.r	2.r	2.r	2.ee	2.r	2.r	2.r	2.r	4b-	2.c
.	.	.	.	.	.	.	.	.	.	4cc	.
.	.	.	.	.	.	.	.	.	.	4b-	.
=249	=249	=249	=249	=249	=249	=249	=249	=249	=249	=249	=249
2.r	2.r	2.r	2.r	2.r	4ee-	2.r	2.r	2.r	2.r	2.a	2.f
.	.	.	.	.	4ff	.	.	.	.	.	.
.	.	.	.	.	4ee-	.	.	.	.	.	.
=250	=250	=250	=250	=250	=250	=250	=250	=250	=250	=250	=250
2.r	4B-	2.r	2.r	2.r	[2.dd	2.r	2.r	2.r	2.r	[2.b-	4b-
.	4A	.	.	.	.	.	.	.	.	.	4a
.	4G	.	.	.	.	.	.	.	.	.	4g
=251	=251	=251	=251	=251	=251	=251	=251	=251	=251	=251	=251
2.r	4F#	2.r	2.r	2.r	2dd]	2.r	2.r	2.r	2.r	2b-]	4f#
.	4G	.	.	.	.	.	.	.	.	.	4g
.	4E-	.	.	.	8ee-	.	.	.	.	8g	4e-
.	.	.	.	.	8cc	.	.	.	.	8e-	.
=252	=252	=252	=252	=252	=252	=252	=252	=252	=252	=252	=252
2.r	2.F	2.r	2.r	2.r	2b-	2.r	2.r	2.r	2.r	2d	2.f
.	.	.	.	.	4a	.	.	.	.	4c	.
=253	=253	=253	=253	=253	=253	=253	=253	=253	=253	=253	=253
2.r	4B-	4B-	4B-	2.r	4b-	[2.bb-	[2.ddd	2.r	2.r	[2.dd	[2.b-
.	4A	4A	4A	.	2r	.	.	.	.	.	.
.	4G	4G	4G	.	.	.	.	.	.	.	.
=254	=254	=254	=254	=254	=254	=254	=254	=254	=254	=254	=254
2.r	4F#	4F#	4F#	2.r	2.r	2bb-]	2ddd]	2.r	2.r	2dd]	2b-]
.	4G	4G	4G	.	.	.	.	.	.	.	.
.	4E-	4E-	4E-	.	.	8gg	8eee-	.	.	8ee-	8g
.	.	.	.	.	.	8ee-	8ccc	.	.	8cc	8e-
=255	=255	=255	=255	=255	=255	=255	=255	=255	=255	=255	=255
2.r	2.F	2.F	2.F	2.r	2.r	2dd	2bb-	2.r	2.r	2b-	2d
.	.	.	.	.	.	4cc	4aa	.	.	4a	4c
=256	=256	=256	=256	=256	=256	=256	=256	=256	=256	=256	=256
2cc	4B-	4B-	4B-	2e	4bb-	4dd	4bb-	2d	2B-	8b-	4B-
.	.	.	.	.	.	.	.	.	.	8ff	.
.	4r	4r	4r	.	4r	4r	4r	.	.	8ff	4r
.	.	.	.	.	.	.	.	.	.	8ff	.
4dd	4f	4F	4F	4g	4aa	4ee-	4ccc	4e-	4c	8aa	4cc 4f 4A
.	.	.	.	.	.	.	.	.	.	16gg	.
.	.	.	.	.	.	.	.	.	.	16aa	.
=257	=257	=257	=257	=257	=257	=257	=257	=257	=257	=257	=257
2ee	4f	4BB-	4BB-	2cc	4bb-	4dd	4ddd	2d	2B-	8bb-	4dd 4B- 4f
.	.	.	.	.	.	.	.	.	.	8ff	.
.	4r	4r	4r	.	4r	4r	4r	.	.	8ff	4r
.	.	.	.	.	.	.	.	.	.	8ff	.
4dd	4f	4F	4F	4g	4aa	4ee-	4ccc	4e-	4c	8aa	4cc 4f 4A
.	.	.	.	.	.	.	.	.	.	16gg	.
.	.	.	.	.	.	.	.	.	.	16aa	.
=258	=258	=258	=258	=258	=258	=258	=258	=258	=258	=258	=258
2ee	4B-	4BB-	4BB-	2cc	4bb-	4dd	4ddd	2d	2B-	8bb-	4dd 4f 4B-
.	.	.	.	.	.	.	.	.	.	8ff	.
.	4r	4r	4r	.	4r	4r	4r	.	.	8ff	4r
.	.	.	.	.	.	.	.	.	.	8ff	.
4dd	4f	4F	4F	4g	4aa	4ee-	4ccc	4e-	4c	8aa	4cc 4f 4A
.	.	.	.	.	.	.	.	.	.	16gg	.
.	.	.	.	.	.	.	.	.	.	16aa	.
=259	=259	=259	=259	=259	=259	=259	=259	=259	=259	=259	=259
4ee	4b-	4B-	4B-	4cc	4bb-	4dd	4bb-	4d	4B-	8bb-	4B- 4dd 4f
.	.	.	.	.	.	.	.	.	.	8b-	.
2r	4g	4G	4G	2r	4gg	4gg	4gg	4g	4g	8gg	8gg
.	.	.	.	.	.	.	.	.	.	8g	8g
.	4e-	4E-	4E-	.	4ee-	4ee-	4ee-	4e-	4e-	8ee-	8ee-
.	.	.	.	.	.	.	.	.	.	8e-	8e-
=260	=260	=260	=260	=260	=260	=260	=260	=260	=260	=260	=260
2.r	4c	4C	4C	2.r	4cc	4cc	4cc	4c	4c	8cc	8cc
.	.	.	.	.	.	.	.	.	.	8c	8c
.	4e-	4E-	4E-	.	4ee-	4ee-	4ee-	4e-	4e-	8ee-	8ee-
.	.	.	.	.	.	.	.	.	.	8e-	8e-
.	8A	8AA	8AA	.	4gg	4ee-	4gg	4A	4A	4gg	4ee-
.	8a	8A	8A	.	.	.	.	.	.	.	.
=261	=261	=261	=261	=261	=261	=261	=261	=261	=261	=261	=261
2.r	8B-	8BB-	8BB-	2.r	4ff	4dd	4ff	4B-	4B-	4ff	4dd
.	8b-	8B-	8B-	.	.	.	.	.	.	.	.
.	8c	8C	8C	.	4ee-	4a	4aa	4c	4c	4ee-	4a
.	8cc	8c	8c	.	.	.	.	.	.	.	.
.	8d	8D	8D	.	4dd	4b-	4bb-	4d	4d	4dd	4b-
.	8dd	8d	8d	.	.	.	.	.	.	.	.
=262	=262	=262	=262	=262	=262	=262	=262	=262	=262	=262	=262
2.r	8e-	8E-	8E-	2.r	4ee-	4cc	4ee-	4e-	4e-	4cc	4g
.	8e-	8E-	8E-	.	.	.	.	.	.	.	.
.	8f	8F	8F	.	4dd	4b-	4dd	4f	4f	4b-	4d
.	8f	8F	8F	.	.	.	.	.	.	.	.
.	8f	8F	8F	.	4cc	4a	4cc	4F	4F	4a	4c
.	8f	8F	8F	.	.	.	.	.	.	.	.
=263	=263	=263	=263	=263	=263	=263	=263	=263	=263	=263	=263
4cc	4B-	4BB-	4BB-	4c	4bb-	4dd	4bb-	4d	4B-	16bb-	4b- 4d
.	.	.	.	.	.	.	.	.	.	16bb-	.
.	.	.	.	.	.	.	.	.	.	16ddd	.
.	.	.	.	.	.	.	.	.	.	16ddd	.
2cc	2c	2BB-	2BB-	2c	2aa	2ee-	2ccc	2e-	2c	16ccc	2a 2e-
.	.	.	.	.	.	.	.	.	.	16ccc	.
.	.	.	.	.	.	.	.	.	.	16eee-	.
.	.	.	.	.	.	.	.	.	.	16eee-	.
.	.	.	.	.	.	.	.	.	.	16aa	.
.	.	.	.	.	.	.	.	.	.	16aa	.
.	.	.	.	.	.	.	.	.	.	16ccc	.
.	.	.	.	.	.	.	.	.	.	16ccc	.
=264	=264	=264	=264	=264	=264	=264	=264	=264	=264	=264	=264
4cc	4B-	4BB-	4BB-	4c	4bb-	4dd	4bb-	4d	4B-	16bb-	4b- 4d
.	.	.	.	.	.	.	.	.	.	16bb-	.
.	.	.	.	.	.	.	.	.	.	16ddd	.
.	.	.	.	.	.	.	.	.	.	16ddd	.
2cc	2c	2BB-	2BB-	2c	2aa	2ee-	2ccc	2e-	2c	16ccc	2e- 2a
.	.	.	.	.	.	.	.	.	.	16ccc	.
.	.	.	.	.	.	.	.	.	.	16eee-	.
.	.	.	.	.	.	.	.	.	.	16eee-	.
.	.	.	.	.	.	.	.	.	.	16aa	.
.	.	.	.	.	.	.	.	.	.	16aa	.
.	.	.	.	.	.	.	.	.	.	16ccc	.
.	.	.	.	.	.	.	.	.	.	16ccc	.
=265	=265	=265	=265	=265	=265	=265	=265	=265	=265	=265	=265
2cc	4B-	4B-	4B-	2c	4bb-	4dd	4bb-	4d	4B-	16bb-	16b-
.	.	.	.	.	.	.	.	.	.	16bb-	16b-
.	.	.	.	.	.	.	.	.	.	16ddd	16dd
.	.	.	.	.	.	.	.	.	.	16ddd	16dd
.	4f	4F	4F	.	2r	2r	2r	2r	2r	16ff	16ff
.	.	.	.	.	.	.	.	.	.	16ff	16ff
.	.	.	.	.	.	.	.	.	.	16bb-	16bb-
.	.	.	.	.	.	.	.	.	.	16bb-	16bb-
4r	4d	4D	4D	4r	.	.	.	.	.	16dd	16dd
.	.	.	.	.	.	.	.	.	.	16dd	16dd
.	.	.	.	.	.	.	.	.	.	16ff	16ff
.	.	.	.	.	.	.	.	.	.	16ff	16ff
=266	=266	=266	=266	=266	=266	=266	=266	=266	=266	=266	=266
2.r	4e-	4E-	4E-	2.r	4gg	4ee-	4gg	4E-	4E-	16g	16g
.	.	.	.	.	.	.	.	.	.	16g	16g
.	.	.	.	.	.	.	.	.	.	16gg	16ee-
.	.	.	.	.	.	.	.	.	.	16gg	16ee-
.	4f	2F	2F	.	8ff	8dd	8ff	4F	4F	16ff	16dd
.	.	.	.	.	.	.	.	.	.	16ff	16dd
.	.	.	.	.	8ee-	8cc	8ee-	.	.	16ee-	16cc
.	.	.	.	.	.	.	.	.	.	16ee-	16cc
.	4F	.	.	.	8dd	8b-	8dd	4F	4F	16dd	16b-
.	.	.	.	.	.	.	.	.	.	16dd	16b-
.	.	.	.	.	8cc	8a	8cc	.	.	16cc	16a
.	.	.	.	.	.	.	.	.	.	16cc	16a
=267	=267	=267	=267	=267	=267	=267	=267	=267	=267	=267	=267
4cc	4B-	4BB-	4BB-	4c	4bb-	4dd	4bb-	4d	4B-	16bb-	4b- 4d
.	.	.	.	.	.	.	.	.	.	16bb-	.
.	.	.	.	.	.	.	.	.	.	16ddd	.
.	.	.	.	.	.	.	.	.	.	16ddd	.
2cc	2c	2BB-	2BB-	2c	2aa	2ee-	2ccc	2e-	2c	16ccc	2e- 2a
.	.	.	.	.	.	.	.	.	.	16ccc	.
.	.	.	.	.	.	.	.	.	.	16eee-	.
.	.	.	.	.	.	.	.	.	.	16eee-	.
.	.	.	.	.	.	.	.	.	.	16aa	.
.	.	.	.	.	.	.	.	.	.	16aa	.
.	.	.	.	.	.	.	.	.	.	16ccc	.
.	.	.	.	.	.	.	.	.	.	16ccc	.
=268	=268	=268	=268	=268	=268	=268	=268	=268	=268	=268	=268
4cc	4B-	4BB-	4BB-	4c	4bb-	4dd	4bb-	4d	4B-	16bb-	4d 4b-
.	.	.	.	.	.	.	.	.	.	16bb-	.
.	.	.	.	.	.	.	.	.	.	16ddd	.
.	.	.	.	.	.	.	.	.	.	16ddd	.
2cc	2c	2BB-	2BB-	2c	2aa	2ee-	2ccc	2e-	2c	16ccc	2e- 2a
.	.	.	.	.	.	.	.	.	.	16ccc	.
.	.	.	.	.	.	.	.	.	.	16eee-	.
.	.	.	.	.	.	.	.	.	.	16eee-	.
.	.	.	.	.	.	.	.	.	.	16aa	.
.	.	.	.	.	.	.	.	.	.	16aa	.
.	.	.	.	.	.	.	.	.	.	16ccc	.
.	.	.	.	.	.	.	.	.	.	16ccc	.
=269	=269	=269	=269	=269	=269	=269	=269	=269	=269	=269	=269
4cc	4B-	4B-	4B-	4c	4bb-	4dd	8bb-	4d	4B-	16bb-	16b-
.	.	.	.	.	.	.	.	.	.	16bb-	16b-
.	.	.	.	.	.	.	8ddd	.	.	16ddd	16dd
.	.	.	.	.	.	.	.	.	.	16ddd	16dd
2r	4f	4F	4F	2r	4ff	4ff	8ff	2r	2r	16ff	16ff
.	.	.	.	.	.	.	.	.	.	16ff	16ff
.	.	.	.	.	.	.	8bb-	.	.	16bb-	16bb-
.	.	.	.	.	.	.	.	.	.	16bb-	16bb-
.	4d	4D	4D	.	4dd	4dd	8dd	.	.	16dd	16dd
.	.	.	.	.	.	.	.	.	.	16dd	16dd
.	.	.	.	.	.	.	8ff	.	.	16ff	16ff
.	.	.	.	.	.	.	.	.	.	16ff	16ff
=270	=270	=270	=270	=270	=270	=270	=270	=270	=270	=270	=270
4r	4e-	4E-	4E-	4r	4gg	4ee-	8ee-	4E-	4E-	16g	16g
.	.	.	.	.	.	.	.	.	.	16g	16g
.	.	.	.	.	.	.	8gg	.	.	16gg	16ee-
.	.	.	.	.	.	.	.	.	.	16gg	16ee-
4g	4f	4F	4F	4g	8ff	8dd	8ff	4F	4F	16ff	16dd
.	.	.	.	.	.	.	.	.	.	16ff	16dd
.	.	.	.	.	8ee-	8cc	8ee-	.	.	16ee-	16cc
.	.	.	.	.	.	.	.	.	.	16ee-	16cc
4g	4a	4A	4A	4g	8dd	8b-	8dd	4A	4A	16dd	16b-
.	.	.	.	.	.	.	.	.	.	16dd	16b-
.	.	.	.	.	8cc	8a	8cc	.	.	16cc	16a
.	.	.	.	.	.	.	.	.	.	16cc	16a
=271	=271	=271	=271	=271	=271	=271	=271	=271	=271	=271	=271
2cc	8b-	8B-	8B-	2e	4bb-	4bb-	8bb-	8B-	8B-	16bb-	16b-
.	.	.	.	.	.	.	.	.	.	16bb-	16b-
.	8b-	8B-	8B-	.	.	.	8ddd	8B-	8B-	16ddd	16dd
.	.	.	.	.	.	.	.	.	.	16ddd	16dd
.	8f	8F	8F	.	4ff	4ff	8ff	8F	8F	16ff	16ff
.	.	.	.	.	.	.	.	.	.	16ff	16ff
.	8f	8F	8F	.	.	.	8bb-	8F	8F	16bb-	16bb-
.	.	.	.	.	.	.	.	.	.	16bb-	16bb-
4r	8d	8D	8D	4r	4dd	4dd	8dd	8D	8D	16dd	16dd
.	.	.	.	.	.	.	.	.	.	16dd	16dd
.	8d	8D	8D	.	.	.	8ff	8D	8D	16ff	16ff
.	.	.	.	.	.	.	.	.	.	16ff	16ff
=272	=272	=272	=272	=272	=272	=272	=272	=272	=272	=272	=272
4r	8e-	8E-	8E-	4r	4gg	4ee-	8ee-	8E-	8E-	16g	16g
.	.	.	.	.	.	.	.	.	.	16g	16g
.	8e-	8E-	8E-	.	.	.	8gg	8E-	8E-	16gg	16ee-
.	.	.	.	.	.	.	.	.	.	16gg	16ee-
4g	8f	8F	8F	4g	8ff	8dd	8ff	8F	8F	16ff	16dd
.	.	.	.	.	.	.	.	.	.	16ff	16dd
.	8f	8F	8F	.	8ee-	8cc	8ee-	8F	8F	16ee-	16cc
.	.	.	.	.	.	.	.	.	.	16ee-	16cc
4g	8f	8F	8F	4g	8dd	8b-	8dd	8F	8F	16dd	16b-
.	.	.	.	.	.	.	.	.	.	16dd	16b-
.	8f	8F	8F	.	8cc	8a	8cc	8F	8F	16cc	16a
.	.	.	.	.	.	.	.	.	.	16cc	16a
=273	=273	=273	=273	=273	=273	=273	=273	=273	=273	=273	=273
4cc	4B-	4BB-	4BB-	4e	4b-	4b-	8b-	4BB-	4BB-	16dd	16dd
.	.	.	.	.	.	.	.	.	.	16dd	16dd
.	.	.	.	.	.	.	8bb-	.	.	16bb-	16bb-
.	.	.	.	.	.	.	.	.	.	16bb-	16bb-
4cc	2r	2r	2r	4e	2r	2r	8ff	2r	2r	16ff	16ff
.	.	.	.	.	.	.	.	.	.	16ff	16ff
.	.	.	.	.	.	.	8bb-	.	.	16bb-	16bb-
.	.	.	.	.	.	.	.	.	.	16bb-	16bb-
4cc	.	.	.	4e	.	.	8dd	.	.	16dd	16dd
.	.	.	.	.	.	.	.	.	.	16dd	16dd
.	.	.	.	.	.	.	8ff	.	.	16ff	16ff
.	.	.	.	.	.	.	.	.	.	16ff	16ff
=274	=274	=274	=274	=274	=274	=274	=274	=274	=274	=274	=274
4cc	8b-	8B-	8B-	4e	8bb-	8bb-	8b-	8B-	8B-	16b-	16b-
.	.	.	.	.	.	.	.	.	.	16b-	16b-
.	8dd	8d	8d	.	8ddd	8ddd	8bb-	8d	8d	16dd	16dd
.	.	.	.	.	.	.	.	.	.	16dd	16dd
4cc	8f	8F	8F	4e	8ff	8ff	8ff	8F	8F	16f	16f
.	.	.	.	.	.	.	.	.	.	16f	16f
.	8b-	8B-	8B-	.	8bb-	8bb-	8bb-	8B-	8B-	16b-	16b-
.	.	.	.	.	.	.	.	.	.	16b-	16b-
4cc	8d	8D	8D	4e	8dd	8dd	8dd	8D	8D	16d	16d
.	.	.	.	.	.	.	.	.	.	16d	16d
.	8f	8F	8F	.	8ff	8ff	8ff	8F	8F	16f	16f
.	.	.	.	.	.	.	.	.	.	16f	16f
=275	=275	=275	=275	=275	=275	=275	=275	=275	=275	=275	=275
4cc	4B-	4BB-	4BB-	4e	4b-	4b-	4b-	4BB-	4BB-	4B-	4B-
4cc	4B-	4BB-	4BB-	4e	4bb-	4dd	4bb-	4BB-	4BB-	4d 4bb- 4b-	4d 4bb- 4b-
4cc	4B-	4BB-	4BB-	4e	4bb-	4dd	4bb-	4BB-	4BB-	4bb- 4b- 4d	4d 4b- 4bb-
=276	=276	=276	=276	=276	=276	=276	=276	=276	=276	=276	=276
4cc	4B-	4BB-	4BB-	4e	4bb-	4dd	4bb-	4BB-	4BB-	4bb- 4b- 4d	4d 4bb- 4b-
2r	2r	2r	2r	2r	2r	2r	2r	2r	2r	2r	2r
==	==	==	==	==	==	==	==	==	==	==	==
*-	*-	*-	*-	*-	*-	*-	*-	*-	*-	*-	*-
!!!RWG1: This file contains only pitch and duration data.
!!!RWG2: Transposing instruments are not transposed.
!!!RWG3: Spines may have incompatible meters.
!!!RWG4: Durations of rests and tied notes may be interpreted.
!!!RWG: Key is interpreted using the Humdrum key tool.
!!!OPT: La Reine
!!!AFT: stage1
!!!END: 1997/04/15
!!format changes:
!!content changes:
!!public access: complete
!!!KEY: 2475299768
!!!EMD: Converted from MuseData to Humdrum Dec 16, 2000, by Andreas Kornstaedt using muse2kern.
